;FLAVOR:Marlin
;TIME:1634
;Filament used: 1.19175m
;Layer height: 0.2
;MINX:96.493
;MINY:91
;MINZ:0.2
;MAXX:138.507
;MAXY:128.271
;MAXZ:19.8
;Generated with Cura_SteamEngine 4.5.0
M140 S50
M105
M190 S50
M104 S210
M105
M109 S210
M82 ;absolute extrusion mode
; Ender 3 Custom Start G-code
G92 E0 ; Reset Extruder
G28 ; Home all axes
G1 Z2.0 F3000 ; Move Z Axis up little to prevent scratching of Heat Bed
G1 X0.1 Y20 Z0.3 F5000.0 ; Move to start position
G1 X0.1 Y200.0 Z0.3 F1500.0 E15 ; Draw the first line
G1 X0.4 Y200.0 Z0.3 F5000.0 ; Move to side a little
G1 X0.4 Y20 Z0.3 F1500.0 E30 ; Draw the second line
G92 E0 ; Reset Extruder
G1 Z2.0 F3000 ; Move Z Axis up little to prevent scratching of Heat Bed
G1 X5 Y20 Z0.3 F5000.0 ; Move over to prevent blob squish
G92 E0
G92 E0
G1 F2700 E-5
;LAYER_COUNT:99
;LAYER:0
M107
G0 F6000 X99.618 Y94.465 Z0.2
;TYPE:SKIRT
G1 F2700 E0
G1 F1200 X100.289 Y93.81 E0.03119
G1 X101.014 Y93.215 E0.06238
G1 X101.787 Y92.684 E0.09357
G1 X102.603 Y92.221 E0.12478
G1 X103.455 Y91.829 E0.15597
G1 X104.337 Y91.511 E0.18716
G1 X105.243 Y91.269 E0.21835
G1 X106.167 Y91.105 E0.24956
G1 X107.415 Y91.01 E0.29119
G1 X107.888 Y91.001 E0.30692
G1 X108.216 Y91 E0.31783
G1 X108.586 Y91.004 E0.33014
G1 X109.333 Y91.037 E0.35501
G1 X111.734 Y91.227 E0.43512
G1 X114.252 Y91.359 E0.51898
G1 X116.774 Y91.419 E0.60289
G1 X119.298 Y91.409 E0.68683
G1 X121.796 Y91.327 E0.76996
G1 X124.372 Y91.171 E0.8558
G1 X126.118 Y91.03 E0.91406
G1 X126.374 Y91.016 E0.92259
G1 X127.14 Y91.001 E0.94807
G1 X127.539 Y91.007 E0.96134
G1 X128.476 Y91.061 E0.99256
G1 X129.404 Y91.195 E1.02374
G1 X130.318 Y91.407 E1.05495
G1 X131.21 Y91.696 E1.08614
G1 X132.074 Y92.061 E1.11733
G1 X132.904 Y92.497 E1.14851
G1 X133.694 Y93.003 E1.17972
G1 X134.438 Y93.574 E1.21091
G1 X135.059 Y94.134 E1.23872
G1 X135.711 Y94.808 E1.26991
G1 X136.304 Y95.535 E1.30112
G1 X136.833 Y96.31 E1.33233
G1 X137.293 Y97.126 E1.36348
G1 X137.683 Y97.98 E1.39471
G1 X137.998 Y98.863 E1.42589
G1 X138.237 Y99.77 E1.45709
G1 X138.398 Y100.694 E1.48828
G1 X138.488 Y101.907 E1.52874
G1 X138.5 Y102.641 E1.55315
G1 X138.5 Y111.046 E1.8327
G1 X138.507 Y112.01 E1.86477
G1 X138.499 Y116.573 E2.01653
G1 X138.489 Y117.292 E2.04045
G1 X138.436 Y118.228 E2.07163
G1 X138.303 Y119.157 E2.10285
G1 X138.092 Y120.071 E2.13405
G1 X137.804 Y120.963 E2.16522
G1 X137.441 Y121.828 E2.19642
G1 X137.005 Y122.658 E2.2276
G1 X136.5 Y123.449 E2.25882
G1 X135.93 Y124.193 E2.28999
G1 X135.299 Y124.887 E2.32119
G1 X134.588 Y125.543 E2.35336
G1 X134.44 Y125.668 E2.35981
G1 X133.698 Y126.242 E2.39101
G1 X132.91 Y126.751 E2.42221
G1 X132.082 Y127.19 E2.45338
G1 X131.219 Y127.558 E2.48459
G1 X130.328 Y127.851 E2.51578
G1 X129.415 Y128.067 E2.54699
G1 X128.488 Y128.204 E2.57815
G1 X127.578 Y128.261 E2.60848
G1 X127.205 Y128.269 E2.62089
G1 X126.819 Y128.271 E2.63373
G1 X126.378 Y128.265 E2.6484
G1 X125.749 Y128.238 E2.66934
G1 X124.872 Y128.175 E2.69858
G1 X123.524 Y128.061 E2.74357
G1 X120.986 Y127.918 E2.82812
G1 X118.473 Y127.849 E2.91174
G1 X115.949 Y127.851 E2.99569
G1 X113.464 Y127.923 E3.07837
G1 X110.106 Y128.129 E3.19027
G1 X109.007 Y128.216 E3.22694
G1 X108.349 Y128.249 E3.24885
G1 X107.836 Y128.259 E3.26591
G1 X106.899 Y128.237 E3.29709
G1 X105.966 Y128.136 E3.3283
G1 X105.046 Y127.955 E3.35949
G1 X104.144 Y127.697 E3.39069
G1 X103.268 Y127.363 E3.42187
G1 X102.423 Y126.955 E3.45308
G1 X101.617 Y126.477 E3.48425
G1 X100.853 Y125.932 E3.51546
G1 X99.844 Y125.039 E3.56028
G1 X99.732 Y124.927 E3.56555
G1 X99.098 Y124.236 E3.59674
G1 X98.524 Y123.494 E3.62794
G1 X98.017 Y122.705 E3.65913
G1 X97.578 Y121.877 E3.6903
G1 X97.211 Y121.013 E3.72152
G1 X96.919 Y120.122 E3.75271
G1 X96.705 Y119.209 E3.7839
G1 X96.568 Y118.281 E3.8151
G1 X96.512 Y117.332 E3.84672
G1 X96.5 Y116.549 E3.87276
G1 X96.5 Y108.22 E4.14979
G1 X96.493 Y107.253 E4.18195
G1 X96.501 Y102.645 E4.33521
G1 X96.511 Y101.967 E4.35777
G1 X96.565 Y101.03 E4.38898
G1 X96.698 Y100.102 E4.42016
G1 X96.91 Y99.189 E4.45134
G1 X97.199 Y98.296 E4.48256
G1 X97.563 Y97.432 E4.51374
G1 X98 Y96.602 E4.54494
G1 X98.505 Y95.812 E4.57612
G1 X99.076 Y95.068 E4.60732
G1 X99.618 Y94.465 E4.63428
G0 F6000 X99.909 Y94.739
G1 F1200 X100.569 Y94.097 E4.66491
G1 X101.282 Y93.515 E4.69552
G1 X102.043 Y92.996 E4.72616
G1 X102.846 Y92.546 E4.75677
G1 X103.685 Y92.167 E4.78739
G1 X104.553 Y91.862 E4.81799
G1 X105.445 Y91.634 E4.84861
G1 X106.354 Y91.484 E4.87926
G1 X107.422 Y91.41 E4.91486
G1 X107.895 Y91.401 E4.9306
G1 X108.212 Y91.4 E4.94114
G1 X108.582 Y91.404 E4.95345
G1 X109.302 Y91.436 E4.97742
G1 X111.721 Y91.627 E5.05813
G1 X114.221 Y91.758 E5.14139
G1 X116.767 Y91.819 E5.2261
G1 X119.313 Y91.809 E5.31078
G1 X121.797 Y91.728 E5.39344
G1 X124.385 Y91.571 E5.47967
G1 X126.14 Y91.43 E5.53823
G1 X126.396 Y91.416 E5.54676
G1 X127.134 Y91.401 E5.57131
G1 X127.533 Y91.407 E5.58458
G1 X128.452 Y91.461 E5.6152
G1 X129.363 Y91.594 E5.64582
G1 X130.259 Y91.806 E5.67645
G1 X131.134 Y92.095 E5.7071
G1 X131.979 Y92.459 E5.7377
G1 X132.79 Y92.894 E5.76831
G1 X133.561 Y93.399 E5.79896
G1 X134.284 Y93.968 E5.82956
G1 X134.784 Y94.424 E5.85207
G1 X135.424 Y95.086 E5.8827
G1 X136.004 Y95.801 E5.91332
G1 X136.52 Y96.564 E5.94395
G1 X136.967 Y97.368 E5.97455
G1 X137.344 Y98.209 E6.0052
G1 X137.645 Y99.078 E6.03579
G1 X137.871 Y99.971 E6.06643
G1 X138.018 Y100.88 E6.09705
G1 X138.088 Y101.914 E6.13152
G1 X138.1 Y102.641 E6.15571
G1 X138.1 Y111.049 E6.43536
G1 X138.107 Y112.01 E6.46732
G1 X138.099 Y116.567 E6.61889
G1 X138.089 Y117.286 E6.64281
G1 X138.036 Y118.206 E6.67346
G1 X137.904 Y119.117 E6.70407
G1 X137.693 Y120.013 E6.73469
G1 X137.405 Y120.887 E6.7653
G1 X137.043 Y121.734 E6.79593
G1 X136.608 Y122.545 E6.82654
G1 X136.104 Y123.316 E6.85718
G1 X135.536 Y124.04 E6.88778
G1 X134.907 Y124.712 E6.9184
G1 X134.33 Y125.237 E6.94434
G1 X134.182 Y125.362 E6.95079
G1 X133.453 Y125.925 E6.98142
G1 X132.679 Y126.423 E7.01204
G1 X131.864 Y126.851 E7.04265
G1 X131.015 Y127.207 E7.07327
G1 X130.138 Y127.489 E7.10391
G1 X129.24 Y127.693 E7.13454
G1 X128.328 Y127.818 E7.16516
G1 X127.569 Y127.862 E7.19044
G1 X127.196 Y127.87 E7.20285
G1 X126.825 Y127.871 E7.21519
G1 X126.384 Y127.865 E7.22986
G1 X125.777 Y127.839 E7.25007
G1 X124.905 Y127.777 E7.27915
G1 X123.508 Y127.659 E7.32578
G1 X121.019 Y127.519 E7.40869
G1 X118.484 Y127.449 E7.49304
G1 X115.972 Y127.451 E7.57659
G1 X113.429 Y127.525 E7.6612
G1 X110.102 Y127.728 E7.77207
G1 X108.975 Y127.818 E7.80967
G1 X108.342 Y127.849 E7.83075
G1 X107.829 Y127.859 E7.84781
G1 X106.908 Y127.837 E7.87846
G1 X105.993 Y127.735 E7.90908
G1 X105.09 Y127.554 E7.93971
G1 X104.207 Y127.296 E7.9703
G1 X103.349 Y126.962 E8.00093
G1 X102.523 Y126.554 E8.03157
G1 X101.736 Y126.077 E8.06218
G1 X100.993 Y125.533 E8.09281
G1 X100.127 Y124.756 E8.1315
G1 X100.015 Y124.644 E8.13677
G1 X99.393 Y123.966 E8.16737
G1 X98.832 Y123.236 E8.198
G1 X98.336 Y122.46 E8.22863
G1 X97.91 Y121.644 E8.25924
G1 X97.556 Y120.794 E8.28987
G1 X97.278 Y119.916 E8.3205
G1 X97.076 Y119.018 E8.35111
G1 X96.953 Y118.105 E8.38175
G1 X96.911 Y117.326 E8.4077
G1 X96.9 Y116.549 E8.43355
G1 X96.9 Y108.217 E8.71067
G1 X96.893 Y107.253 E8.74273
G1 X96.901 Y102.651 E8.8958
G1 X96.911 Y101.973 E8.91835
G1 X96.965 Y101.054 E8.94897
G1 X97.098 Y100.143 E8.97959
G1 X97.309 Y99.247 E9.01021
G1 X97.598 Y98.372 E9.04086
G1 X97.961 Y97.526 E9.07147
G1 X98.397 Y96.715 E9.1021
G1 X98.901 Y95.945 E9.13271
G1 X99.47 Y95.221 E9.16333
G1 X99.909 Y94.739 E9.18502
G0 F6000 X100.2 Y95.013
G1 F1200 X100.848 Y94.384 E9.21506
G1 X101.549 Y93.815 E9.24508
G1 X102.297 Y93.309 E9.27512
G1 X103.087 Y92.872 E9.30515
G1 X103.913 Y92.507 E9.33518
G1 X104.768 Y92.216 E9.36522
G1 X105.646 Y92.002 E9.39528
G1 X106.538 Y91.866 E9.42529
G1 X107.43 Y91.81 E9.45502
G1 X108.207 Y91.8 E9.48086
G1 X108.577 Y91.804 E9.49317
G1 X109.27 Y91.835 E9.51624
G1 X111.667 Y92.024 E9.59621
G1 X114.226 Y92.159 E9.68145
G1 X116.759 Y92.219 E9.76572
G1 X119.292 Y92.209 E9.84997
G1 X121.87 Y92.125 E9.93576
G1 X124.397 Y91.972 E10.01996
G1 X126.162 Y91.829 E10.07885
G1 X126.418 Y91.815 E10.08738
G1 X127.128 Y91.801 E10.111
G1 X127.527 Y91.807 E10.12427
G1 X128.429 Y91.861 E10.15433
G1 X129.322 Y91.994 E10.18436
G1 X130.2 Y92.205 E10.21439
G1 X131.056 Y92.494 E10.24444
G1 X131.883 Y92.857 E10.27448
G1 X132.674 Y93.291 E10.30449
G1 X133.425 Y93.794 E10.33455
G1 X134.393 Y94.605 E10.37655
G1 X134.509 Y94.715 E10.38187
G1 X135.136 Y95.364 E10.41188
G1 X135.703 Y96.067 E10.44192
G1 X136.206 Y96.817 E10.47196
G1 X136.64 Y97.609 E10.502
G1 X137.003 Y98.436 E10.53204
G1 X137.291 Y99.292 E10.56208
G1 X137.503 Y100.17 E10.59212
G1 X137.636 Y101.063 E10.62215
G1 X137.688 Y101.922 E10.65077
G1 X137.7 Y102.641 E10.67469
G1 X137.7 Y111.053 E10.95447
G1 X137.707 Y112.009 E10.98627
G1 X137.699 Y116.562 E11.1377
G1 X137.689 Y117.281 E11.16162
G1 X137.636 Y118.182 E11.19164
G1 X137.504 Y119.076 E11.22169
G1 X137.294 Y119.954 E11.25172
G1 X137.006 Y120.81 E11.28176
G1 X136.644 Y121.638 E11.31182
G1 X136.211 Y122.43 E11.34184
G1 X135.708 Y123.18 E11.37187
G1 X135.142 Y123.884 E11.40192
G1 X134.515 Y124.534 E11.43196
G1 X134.072 Y124.932 E11.45176
G1 X133.924 Y125.057 E11.45821
G1 X133.208 Y125.608 E11.48826
G1 X132.447 Y126.094 E11.51829
G1 X131.646 Y126.511 E11.54832
G1 X130.811 Y126.856 E11.57837
G1 X129.949 Y127.125 E11.60841
G1 X129.067 Y127.317 E11.63843
G1 X128.171 Y127.43 E11.66847
G1 X127.561 Y127.462 E11.68878
G1 X127.188 Y127.47 E11.70119
G1 X126.83 Y127.471 E11.7131
G1 X126.389 Y127.465 E11.72777
G1 X125.805 Y127.44 E11.74721
G1 X124.939 Y127.378 E11.77609
G1 X123.564 Y127.262 E11.82198
G1 X121.018 Y127.119 E11.9068
G1 X118.495 Y127.049 E11.99074
G1 X115.961 Y127.051 E12.07502
G1 X113.425 Y127.124 E12.15941
G1 X110.043 Y127.332 E12.2721
G1 X108.943 Y127.419 E12.30881
G1 X108.334 Y127.449 E12.32909
G1 X107.821 Y127.459 E12.34615
G1 X106.918 Y127.437 E12.37619
G1 X106.021 Y127.335 E12.40622
G1 X105.136 Y127.153 E12.43627
G1 X104.271 Y126.895 E12.46629
G1 X103.432 Y126.561 E12.49633
G1 X102.625 Y126.153 E12.52641
G1 X101.859 Y125.677 E12.5564
G1 X101.137 Y125.134 E12.58645
G1 X100.41 Y124.473 E12.61913
G1 X100.298 Y124.361 E12.6244
G1 X99.688 Y123.695 E12.65444
G1 X99.139 Y122.978 E12.68447
G1 X98.657 Y122.214 E12.71452
G1 X98.243 Y121.411 E12.74456
G1 X97.903 Y120.575 E12.77458
G1 X97.637 Y119.712 E12.80462
G1 X97.449 Y118.829 E12.83464
G1 X97.34 Y117.932 E12.8647
G1 X97.311 Y117.319 E12.88511
G1 X97.3 Y116.549 E12.91072
G1 X97.3 Y108.214 E13.18795
G1 X97.293 Y107.254 E13.21988
G1 X97.301 Y102.657 E13.37277
G1 X97.311 Y101.979 E13.39533
G1 X97.364 Y101.077 E13.42538
G1 X97.497 Y100.184 E13.45541
G1 X97.709 Y99.306 E13.48545
G1 X97.997 Y98.45 E13.51549
G1 X98.359 Y97.623 E13.54551
G1 X98.794 Y96.831 E13.57557
G1 X99.297 Y96.081 E13.6056
G1 X100.086 Y95.134 E13.6466
G1 X100.2 Y95.013 E13.65213
G0 F6000 X107.7 Y102.195
G1 F1200 X108.421 Y102.193 E13.67611
G1 X108.734 Y102.355 E13.68783
G1 X108.826 Y102.377 E13.69098
G1 X109.785 Y102.377 E13.72288
G1 X110.097 Y102.538 E13.73455
G1 X110.189 Y102.56 E13.7377
G1 X111.547 Y102.56 E13.78287
G1 X111.86 Y102.722 E13.79459
G1 X111.952 Y102.744 E13.79773
G1 X123.388 Y102.744 E14.1781
G1 X123.48 Y102.722 E14.18124
G1 X123.792 Y102.561 E14.19292
G1 X124.871 Y102.561 E14.22881
G1 X124.963 Y102.539 E14.23195
G1 X125.275 Y102.378 E14.24363
G1 X126.452 Y102.378 E14.28278
G1 X126.543 Y102.356 E14.28589
G1 X126.856 Y102.196 E14.29758
G1 X127.3 Y102.196 E14.31235
G1 X127.3 Y104.047 E14.37392
G1 X126.33 Y104.03 E14.40618
G1 X108.676 Y104.031 E14.99336
G1 X107.7 Y104.048 E15.02583
G1 X107.7 Y102.195 E15.08746
G0 F6000 X108.1 Y102.593
G1 F1200 X108.324 Y102.593 E15.09491
G1 X108.55 Y102.71 E15.10337
G1 X108.826 Y102.777 E15.11282
G1 X109.689 Y102.777 E15.14152
G1 X109.914 Y102.893 E15.14994
G1 X110.189 Y102.96 E15.15935
G1 X111.45 Y102.96 E15.2013
G1 X111.676 Y103.077 E15.20976
G1 X111.952 Y103.144 E15.21921
G1 X123.388 Y103.144 E15.59957
G1 X123.663 Y103.077 E15.60898
G1 X123.888 Y102.961 E15.6174
G1 X124.871 Y102.961 E15.6501
G1 X125.146 Y102.894 E15.65951
G1 X125.371 Y102.778 E15.66793
G1 X126.452 Y102.778 E15.70389
G1 X126.725 Y102.712 E15.71323
G1 X126.9 Y102.623 E15.71976
G1 X126.9 Y103.64 E15.75358
G1 X126.337 Y103.63 E15.77231
G1 X108.676 Y103.631 E16.35972
G1 X108.1 Y103.641 E16.37888
G1 X108.1 Y102.593 E16.41374
G0 F6000 X108.5 Y103.112
G1 F1200 X108.632 Y103.158 E16.41838
G1 X108.826 Y103.177 E16.42487
G1 X109.591 Y103.177 E16.45031
G1 X109.696 Y103.231 E16.45424
G1 X108.5 Y103.234 E16.49402
G1 X108.5 Y103.112 E16.49808
G1 F2700 E11.49808
G0 F6000 X106.847 Y103.609
G0 X106.847 Y115.668
G0 X107.694 Y115.694
G0 X107.7 Y115.228
G1 F2700 E16.49808
G1 F1200 X108.517 Y115.242 E16.52525
G1 X126.476 Y115.241 E17.12257
G1 X127.3 Y115.228 E17.14998
G1 X127.3 Y117.073 E17.21135
G1 X126.567 Y117.076 E17.23573
G1 X126.254 Y116.916 E17.24742
G1 X126.163 Y116.894 E17.25053
G1 X125.055 Y116.894 E17.28738
G1 X124.742 Y116.734 E17.29908
G1 X124.651 Y116.712 E17.30219
G1 X123.561 Y116.712 E17.33844
G1 X123.248 Y116.552 E17.35014
G1 X123.157 Y116.53 E17.35325
G1 X111.803 Y116.529 E17.73089
G1 X111.712 Y116.551 E17.734
G1 X111.398 Y116.711 E17.74572
G1 X110.289 Y116.711 E17.78261
G1 X110.198 Y116.733 E17.78572
G1 X109.885 Y116.893 E17.79741
G1 X108.371 Y116.893 E17.84777
G1 X108.282 Y116.914 E17.85081
G1 X107.966 Y117.071 E17.86254
G1 X107.7 Y117.071 E17.87139
G1 X107.7 Y115.228 E17.93269
G0 F6000 X108.1 Y115.635
G1 F1200 X108.51 Y115.642 E17.94633
G1 X126.476 Y115.641 E18.54388
G1 X126.9 Y115.635 E18.55798
G1 X126.9 Y116.676 E18.59261
G1 X126.663 Y116.676 E18.60049
G1 X126.436 Y116.56 E18.60897
G1 X126.163 Y116.494 E18.61831
G1 X125.151 Y116.494 E18.65197
G1 X124.924 Y116.378 E18.66045
G1 X124.651 Y116.312 E18.66979
G1 X123.657 Y116.312 E18.70285
G1 X123.43 Y116.196 E18.71133
G1 X123.157 Y116.13 E18.72067
G1 X111.803 Y116.129 E19.09831
G1 X111.53 Y116.194 E19.10764
G1 X111.301 Y116.311 E19.11619
G1 X110.289 Y116.311 E19.14985
G1 X110.016 Y116.377 E19.1592
G1 X109.789 Y116.493 E19.16767
G1 X108.371 Y116.493 E19.21484
G1 X108.104 Y116.556 E19.22396
G1 X108.1 Y115.635 E19.25459
G0 F6000 X108.5 Y116.042
G1 F1200 X109.793 Y116.042 E19.2976
G1 X109.693 Y116.093 E19.30133
G1 X108.5 Y116.093 E19.34101
G1 X108.5 Y116.042 E19.34271
G0 F6000 X125.143 Y116.041
G1 F1200 X126.5 Y116.041 E19.38784
G1 X126.5 Y116.163 E19.3919
G1 X126.351 Y116.112 E19.39714
G1 X126.163 Y116.094 E19.40342
G1 X125.247 Y116.094 E19.43389
G1 X125.143 Y116.041 E19.43777
G1 F2700 E14.43777
G0 F6000 X128.153 Y115.668
G0 X128.153 Y103.608
G0 X125.368 Y103.23
G1 F2700 E19.43777
G1 F1200 X125.469 Y103.178 E19.44155
G1 X126.452 Y103.178 E19.47424
G1 X126.5 Y103.171 E19.47585
G1 X126.5 Y103.233 E19.47792
G1 X126.344 Y103.23 E19.48311
G1 X125.368 Y103.23 E19.51557
G1 F2700 E14.51557
G0 F6000 X126.322 Y104.43
;TYPE:SUPPORT-INTERFACE
G1 F2700 E19.51557
G1 F1200 X126.324 Y104.43 E19.51563
G1 X127.3 Y104.447 E19.5481
G1 X127.3 Y106.948 E19.63129
G1 X125.375 Y106.852 E19.69539
G1 X109.619 Y106.851 E20.21944
G1 X107.7 Y106.949 E20.28335
G1 X107.7 Y104.448 E20.36653
G1 X108.674 Y104.431 E20.39893
G1 X108.676 Y104.431 E20.399
G1 X126.322 Y104.43 E20.98591
G1 F2700 E15.98591
G0 F6000 X126.321 Y103.566
G0 X128.153 Y103.608
G0 X128.162 Y111.289
G0 X127.962 Y111.481
G0 X125.316 Y112.415
G1 F2700 E20.98591
G1 F1200 X127.3 Y112.314 E21.05198
G1 X127.3 Y114.828 E21.13559
G1 X126.477 Y114.841 E21.16297
G1 X126.476 Y114.841 E21.163
G1 X108.525 Y114.842 E21.76006
G1 X108.523 Y114.842 E21.76012
G1 X107.7 Y114.828 E21.7875
G1 X107.7 Y112.315 E21.87108
G1 X109.689 Y112.414 E21.93732
G1 X125.316 Y112.415 E22.45708
G0 F6000 X124.973 Y112.614
G1 F1200 X122.946 Y114.641 E22.55242
G0 F6000 X121.429 Y114.641
G1 F1200 X119.402 Y112.614 E22.64776
G0 F6000 X118.185 Y112.613
G1 F1200 X116.158 Y114.641 E22.74313
G0 F6000 X114.641 Y114.641
G1 F1200 X112.613 Y112.613 E22.83852
G0 F6000 X111.398 Y112.613
G1 F1200 X109.37 Y114.641 E22.93391
G0 F6000 X111.246 Y114.641
G1 F1200 X109.194 Y112.589 E23.03043
G0 F6000 X108.084 Y112.533
G1 F1200 X107.9 Y112.717 E23.03909
G1 F2700 E18.03909
