;FLAVOR:Marlin
;TIME:1413
;Filament used: 1.14908m
;Layer height: 0.2
;MINX:96.519
;MINY:96.519
;MINZ:0.2
;MAXX:138.481
;MAXY:138.481
;MAXZ:20
;Generated with Cura_SteamEngine 4.5.0
M140 S50
M105
M190 S50
M104 S210
M105
M109 S210
M82 ;absolute extrusion mode
; Ender 3 Custom Start G-code
G92 E0 ; Reset Extruder
G28 ; Home all axes
G1 Z2.0 F3000 ; Move Z Axis up little to prevent scratching of Heat Bed
G1 X0.1 Y20 Z0.3 F5000.0 ; Move to start position
G1 X0.1 Y200.0 Z0.3 F1500.0 E15 ; Draw the first line
G1 X0.4 Y200.0 Z0.3 F5000.0 ; Move to side a little
G1 X0.4 Y20 Z0.3 F1500.0 E30 ; Draw the second line
G92 E0 ; Reset Extruder
G1 Z2.0 F3000 ; Move Z Axis up little to prevent scratching of Heat Bed
G1 X5 Y20 Z0.3 F5000.0 ; Move over to prevent blob squish
G92 E0
G92 E0
G1 F2700 E-5
;LAYER_COUNT:100
;LAYER:0
M107
G0 F6000 X102.784 Y102.535 Z0.2
;TYPE:SKIRT
G1 F2700 E0
G1 F1200 X103.241 Y102.097 E0.02105
G1 X103.599 Y101.773 E0.03711
G1 X104.012 Y101.417 E0.05525
G1 X104.387 Y101.11 E0.07137
G1 X104.795 Y100.792 E0.08857
G1 X105.215 Y100.48 E0.10597
G1 X105.718 Y100.128 E0.12639
G1 X106.147 Y99.845 E0.14349
G1 X106.607 Y99.557 E0.16154
G1 X107.008 Y99.32 E0.17703
G1 X107.458 Y99.068 E0.19419
G1 X107.934 Y98.816 E0.2121
G1 X108.467 Y98.552 E0.23188
G1 X108.915 Y98.345 E0.2483
G1 X109.375 Y98.146 E0.26497
G1 X109.809 Y97.969 E0.28056
G1 X110.38 Y97.754 E0.30085
G1 X110.859 Y97.589 E0.3177
G1 X111.327 Y97.439 E0.33404
G1 X111.808 Y97.297 E0.35073
G1 X112.307 Y97.162 E0.36792
G1 X112.74 Y97.056 E0.38275
G1 X113.246 Y96.945 E0.39998
G1 X113.732 Y96.85 E0.41645
G1 X114.3 Y96.755 E0.4356
G1 X114.632 Y96.708 E0.44675
G1 X115.254 Y96.638 E0.46757
G1 X116.207 Y96.558 E0.49938
G1 X117.127 Y96.519 E0.53001
G1 X117.937 Y96.519 E0.55695
G1 X118.984 Y96.569 E0.59181
G1 X119.998 Y96.666 E0.62569
G1 X120.805 Y96.773 E0.65277
G1 X121.378 Y96.871 E0.6721
G1 X122.024 Y97.002 E0.69402
G1 X122.504 Y97.114 E0.71042
G1 X123.011 Y97.245 E0.72783
G1 X123.493 Y97.382 E0.7445
G1 X124.02 Y97.546 E0.76286
G1 X124.471 Y97.699 E0.7787
G1 X124.974 Y97.884 E0.79652
G1 X125.339 Y98.028 E0.80957
G1 X125.884 Y98.257 E0.82924
G1 X126.109 Y98.357 E0.83743
G1 X126.503 Y98.538 E0.85185
G1 X126.967 Y98.765 E0.86903
G1 X127.338 Y98.957 E0.88292
G1 X127.823 Y99.224 E0.90133
G1 X128.298 Y99.501 E0.91962
G1 X128.742 Y99.774 E0.93696
G1 X129.109 Y100.012 E0.95151
G1 X129.572 Y100.329 E0.97017
G1 X130.024 Y100.656 E0.98873
G1 X130.496 Y101.017 E1.00849
G1 X130.905 Y101.348 E1.02599
G1 X131.318 Y101.7 E1.04404
G1 X131.621 Y101.971 E1.05756
G1 X132.006 Y102.332 E1.07511
G1 X132.465 Y102.784 E1.09654
G1 X132.904 Y103.242 E1.11764
G1 X133.227 Y103.599 E1.13365
G1 X133.579 Y104.008 E1.1516
G1 X133.887 Y104.384 E1.16777
G1 X134.208 Y104.795 E1.18511
G1 X134.52 Y105.215 E1.20251
G1 X134.872 Y105.718 E1.22293
G1 X135.155 Y106.147 E1.24003
G1 X135.439 Y106.601 E1.25784
G1 X135.671 Y106.993 E1.27299
G1 X135.925 Y107.446 E1.29026
G1 X136.182 Y107.931 E1.30852
G1 X136.448 Y108.467 E1.32842
G1 X136.655 Y108.915 E1.34483
G1 X136.854 Y109.375 E1.3615
G1 X137.031 Y109.809 E1.37709
G1 X137.246 Y110.38 E1.39739
G1 X137.411 Y110.859 E1.41424
G1 X137.561 Y111.327 E1.43058
G1 X137.703 Y111.808 E1.44726
G1 X137.838 Y112.307 E1.46446
G1 X137.944 Y112.74 E1.47928
G1 X138.055 Y113.246 E1.49651
G1 X138.15 Y113.732 E1.51298
G1 X138.245 Y114.296 E1.53201
G1 X138.292 Y114.627 E1.54313
G1 X138.362 Y115.249 E1.56394
G1 X138.442 Y116.198 E1.59562
G1 X138.481 Y117.122 E1.62638
G1 X138.481 Y117.935 E1.65342
G1 X138.468 Y118.477 E1.67145
G1 X138.457 Y118.7 E1.67888
G1 X138.429 Y119.111 E1.69258
G1 X138.391 Y119.548 E1.70717
G1 X138.339 Y120.023 E1.72306
G1 X138.278 Y120.489 E1.73869
G1 X138.19 Y121.047 E1.75748
G1 X138.105 Y121.51 E1.77314
G1 X137.996 Y122.033 E1.79091
G1 X137.884 Y122.511 E1.80724
G1 X137.757 Y123.004 E1.82417
G1 X137.62 Y123.487 E1.84087
G1 X137.456 Y124.012 E1.85916
G1 X137.303 Y124.464 E1.87503
G1 X137.116 Y124.974 E1.8931
G1 X136.972 Y125.339 E1.90615
G1 X136.752 Y125.863 E1.92505
G1 X136.644 Y126.106 E1.9339
G1 X136.458 Y126.51 E1.94869
G1 X136.237 Y126.963 E1.96545
G1 X136.041 Y127.342 E1.97965
G1 X135.772 Y127.832 E1.99824
G1 X135.499 Y128.3 E2.01626
G1 X135.226 Y128.742 E2.03354
G1 X134.988 Y129.109 E2.04809
G1 X134.668 Y129.576 E2.06691
G1 X134.337 Y130.033 E2.08568
G1 X133.978 Y130.502 E2.10533
G1 X133.651 Y130.906 E2.12261
G1 X133.3 Y131.318 E2.14062
G1 X133.029 Y131.621 E2.15414
G1 X132.668 Y132.006 E2.17169
G1 X132.216 Y132.465 E2.19312
G1 X131.758 Y132.904 E2.21422
G1 X131.401 Y133.227 E2.23023
G1 X130.992 Y133.579 E2.24818
G1 X130.616 Y133.887 E2.26434
G1 X130.205 Y134.208 E2.28169
G1 X129.785 Y134.52 E2.29909
G1 X129.282 Y134.872 E2.31951
G1 X128.853 Y135.155 E2.3366
G1 X128.394 Y135.442 E2.35461
G1 X128.005 Y135.672 E2.36964
G1 X127.564 Y135.919 E2.38645
G1 X127.076 Y136.178 E2.40483
G1 X126.533 Y136.448 E2.425
G1 X126.085 Y136.655 E2.44141
G1 X125.625 Y136.854 E2.45808
G1 X125.191 Y137.031 E2.47367
G1 X124.62 Y137.246 E2.49396
G1 X124.141 Y137.411 E2.51081
G1 X123.673 Y137.561 E2.52716
G1 X123.192 Y137.703 E2.54384
G1 X122.693 Y137.838 E2.56103
G1 X122.26 Y137.944 E2.57586
G1 X121.754 Y138.055 E2.59309
G1 X121.268 Y138.15 E2.60956
G1 X120.7 Y138.245 E2.62871
G1 X120.368 Y138.292 E2.63987
G1 X119.746 Y138.362 E2.66068
G1 X118.793 Y138.442 E2.69249
G1 X117.873 Y138.481 E2.72312
G1 X117.06 Y138.481 E2.75016
G1 X116.009 Y138.431 E2.78516
G1 X114.998 Y138.334 E2.81894
G1 X114.195 Y138.227 E2.84588
G1 X113.622 Y138.129 E2.86522
G1 X112.976 Y137.998 E2.88714
G1 X112.496 Y137.886 E2.90353
G1 X111.989 Y137.755 E2.92095
G1 X111.507 Y137.618 E2.93762
G1 X110.98 Y137.454 E2.95597
G1 X110.529 Y137.301 E2.97181
G1 X110.026 Y137.116 E2.98964
G1 X109.661 Y136.972 E3.00269
G1 X109.116 Y136.743 E3.02235
G1 X108.891 Y136.643 E3.03054
G1 X108.497 Y136.462 E3.04496
G1 X108.026 Y136.231 E3.06241
G1 X107.648 Y136.035 E3.07657
G1 X107.171 Y135.773 E3.09467
G1 X106.701 Y135.499 E3.11277
G1 X106.251 Y135.222 E3.13034
G1 X105.886 Y134.985 E3.14482
G1 X105.424 Y134.668 E3.16345
G1 X104.967 Y134.337 E3.18222
G1 X104.498 Y133.978 E3.20186
G1 X104.094 Y133.651 E3.21915
G1 X103.682 Y133.3 E3.23715
G1 X103.379 Y133.029 E3.25067
G1 X102.994 Y132.668 E3.26823
G1 X102.535 Y132.216 E3.28965
G1 X102.097 Y131.759 E3.31071
G1 X101.773 Y131.401 E3.32677
G1 X101.417 Y130.988 E3.3449
G1 X101.11 Y130.613 E3.36102
G1 X100.793 Y130.206 E3.37818
G1 X100.472 Y129.774 E3.39608
G1 X100.108 Y129.254 E3.41719
G1 X99.834 Y128.837 E3.43379
G1 X99.561 Y128.399 E3.45095
G1 X99.329 Y128.007 E3.4661
G1 X99.075 Y127.554 E3.48338
G1 X98.817 Y127.067 E3.50171
G1 X98.551 Y126.529 E3.52167
G1 X98.345 Y126.083 E3.53801
G1 X98.146 Y125.625 E3.55462
G1 X97.969 Y125.191 E3.57021
G1 X97.754 Y124.62 E3.5905
G1 X97.589 Y124.141 E3.60735
G1 X97.439 Y123.673 E3.6237
G1 X97.297 Y123.192 E3.64038
G1 X97.162 Y122.693 E3.65757
G1 X97.056 Y122.26 E3.6724
G1 X96.945 Y121.754 E3.68963
G1 X96.85 Y121.268 E3.7061
G1 X96.755 Y120.7 E3.72525
G1 X96.708 Y120.368 E3.73641
G1 X96.638 Y119.748 E3.75716
G1 X96.558 Y118.797 E3.7889
G1 X96.519 Y117.875 E3.81959
G1 X96.519 Y117.06 E3.8467
G1 X96.569 Y116.011 E3.88163
G1 X96.668 Y114.978 E3.91614
G1 X96.781 Y114.142 E3.9442
G1 X96.877 Y113.59 E3.96284
G1 X97.004 Y112.966 E3.98402
G1 X97.116 Y112.488 E4.00035
G1 X97.245 Y111.99 E4.01746
G1 X97.382 Y111.508 E4.03412
G1 X97.548 Y110.974 E4.05272
G1 X97.702 Y110.521 E4.06864
G1 X97.873 Y110.055 E4.08515
G1 X98.015 Y109.692 E4.09811
G1 X98.256 Y109.117 E4.11885
G1 X98.366 Y108.871 E4.12781
G1 X98.548 Y108.477 E4.14224
G1 X98.763 Y108.037 E4.15853
G1 X98.959 Y107.658 E4.17272
G1 X99.223 Y107.177 E4.19097
G1 X99.496 Y106.708 E4.20902
G1 X99.777 Y106.252 E4.22684
G1 X100.014 Y105.887 E4.24131
G1 X100.334 Y105.421 E4.26011
G1 X100.666 Y104.963 E4.27893
G1 X101.022 Y104.498 E4.29841
G1 X101.349 Y104.094 E4.31569
G1 X101.7 Y103.682 E4.3337
G1 X101.971 Y103.379 E4.34722
G1 X102.332 Y102.994 E4.36477
G1 X102.784 Y102.535 E4.3862
G0 F6000 X103.069 Y102.815
G1 F1200 X103.509 Y102.394 E4.40645
G1 X103.867 Y102.07 E4.42251
G1 X104.265 Y101.727 E4.43999
G1 X104.64 Y101.42 E4.4561
G1 X105.034 Y101.113 E4.47272
G1 X105.454 Y100.801 E4.49012
G1 X105.938 Y100.462 E4.50977
G1 X106.367 Y100.179 E4.52687
G1 X106.811 Y99.902 E4.54427
G1 X107.212 Y99.665 E4.55976
G1 X107.645 Y99.422 E4.57628
G1 X108.121 Y99.17 E4.59419
G1 X108.635 Y98.916 E4.61326
G1 X109.083 Y98.709 E4.62968
G1 X109.526 Y98.516 E4.64575
G1 X109.96 Y98.339 E4.66134
G1 X110.511 Y98.132 E4.68091
G1 X110.99 Y97.967 E4.69776
G1 X111.441 Y97.823 E4.71351
G1 X111.922 Y97.681 E4.73019
G1 X112.403 Y97.551 E4.74676
G1 X112.836 Y97.445 E4.76159
G1 X113.322 Y97.338 E4.77814
G1 X113.808 Y97.243 E4.79461
G1 X114.356 Y97.151 E4.81309
G1 X114.688 Y97.104 E4.82425
G1 X115.287 Y97.036 E4.8443
G1 X116.24 Y96.956 E4.87611
G1 X117.127 Y96.919 E4.90563
G1 X117.937 Y96.919 E4.93257
G1 X118.946 Y96.967 E4.96617
G1 X119.96 Y97.064 E5.00005
G1 X120.738 Y97.168 E5.02616
G1 X121.311 Y97.266 E5.04549
G1 X121.933 Y97.391 E5.06659
G1 X122.413 Y97.503 E5.08299
G1 X122.902 Y97.63 E5.09979
G1 X123.384 Y97.767 E5.11646
G1 X123.891 Y97.925 E5.13412
G1 X124.342 Y98.078 E5.14996
G1 X124.827 Y98.256 E5.16714
G1 X125.192 Y98.4 E5.18019
G1 X125.725 Y98.624 E5.19942
G1 X126.336 Y98.902 E5.22175
G1 X126.783 Y99.12 E5.23829
G1 X127.154 Y99.312 E5.25219
G1 X127.622 Y99.569 E5.26994
G1 X128.097 Y99.846 E5.28823
G1 X128.525 Y100.109 E5.30494
G1 X128.892 Y100.347 E5.31949
G1 X129.337 Y100.653 E5.33745
G1 X129.789 Y100.98 E5.35601
G1 X130.244 Y101.328 E5.37506
G1 X130.653 Y101.659 E5.39256
G1 X131.052 Y101.998 E5.40997
G1 X131.355 Y102.269 E5.42349
G1 X131.726 Y102.617 E5.44041
G1 X132.185 Y103.069 E5.46184
G1 X132.607 Y103.51 E5.48214
G1 X132.93 Y103.867 E5.49815
G1 X133.27 Y104.262 E5.51549
G1 X133.578 Y104.638 E5.53165
G1 X133.887 Y105.034 E5.54836
G1 X134.199 Y105.454 E5.56576
G1 X134.538 Y105.938 E5.58541
G1 X134.821 Y106.367 E5.60251
G1 X135.095 Y106.805 E5.61969
G1 X135.327 Y107.197 E5.63484
G1 X135.571 Y107.633 E5.65146
G1 X135.828 Y108.118 E5.66972
G1 X136.084 Y108.635 E5.6889
G1 X136.291 Y109.083 E5.70532
G1 X136.484 Y109.526 E5.72139
G1 X136.661 Y109.96 E5.73698
G1 X136.868 Y110.511 E5.75656
G1 X137.033 Y110.99 E5.77341
G1 X137.177 Y111.441 E5.78915
G1 X137.319 Y111.922 E5.80583
G1 X137.449 Y112.403 E5.82241
G1 X137.555 Y112.836 E5.83723
G1 X137.662 Y113.322 E5.85378
G1 X137.757 Y113.808 E5.87025
G1 X137.849 Y114.352 E5.8886
G1 X137.896 Y114.683 E5.89972
G1 X137.964 Y115.283 E5.91981
G1 X138.044 Y116.232 E5.95148
G1 X138.081 Y117.122 E5.98111
G1 X138.081 Y117.935 E6.00815
G1 X138.068 Y118.457 E6.02552
G1 X138.057 Y118.68 E6.03294
G1 X138.03 Y119.076 E6.04615
G1 X137.992 Y119.513 E6.06074
G1 X137.942 Y119.971 E6.07606
G1 X137.881 Y120.437 E6.09169
G1 X137.797 Y120.975 E6.1098
G1 X137.712 Y121.438 E6.12546
G1 X137.606 Y121.942 E6.14259
G1 X137.494 Y122.42 E6.15892
G1 X137.372 Y122.895 E6.17523
G1 X137.235 Y123.378 E6.19193
G1 X137.077 Y123.884 E6.20956
G1 X136.924 Y124.336 E6.22543
G1 X136.744 Y124.827 E6.24282
G1 X136.473 Y125.501 E6.26698
G1 X136.281 Y125.939 E6.28289
G1 X136.095 Y126.343 E6.29768
G1 X135.881 Y126.779 E6.31384
G1 X135.685 Y127.158 E6.32803
G1 X135.426 Y127.63 E6.34594
G1 X135.153 Y128.098 E6.36396
G1 X134.891 Y128.525 E6.38062
G1 X134.653 Y128.892 E6.39517
G1 X134.344 Y129.342 E6.41332
G1 X134.013 Y129.799 E6.43209
G1 X133.667 Y130.25 E6.451
G1 X133.34 Y130.654 E6.46828
G1 X133.002 Y131.052 E6.48565
G1 X132.731 Y131.355 E6.49917
G1 X132.383 Y131.726 E6.51609
G1 X131.931 Y132.185 E6.53752
G1 X131.49 Y132.607 E6.55782
G1 X131.133 Y132.93 E6.57383
G1 X130.738 Y133.27 E6.59116
G1 X130.362 Y133.578 E6.60733
G1 X129.966 Y133.887 E6.62404
G1 X129.546 Y134.199 E6.64144
G1 X129.062 Y134.538 E6.66109
G1 X128.633 Y134.821 E6.67819
G1 X128.191 Y135.097 E6.69552
G1 X127.802 Y135.327 E6.71055
G1 X127.376 Y135.566 E6.7268
G1 X126.888 Y135.825 E6.74517
G1 X126.365 Y136.084 E6.76458
G1 X125.917 Y136.291 E6.781
G1 X125.474 Y136.484 E6.79707
G1 X125.04 Y136.661 E6.81266
G1 X124.489 Y136.868 E6.83223
G1 X124.01 Y137.033 E6.84908
G1 X123.559 Y137.177 E6.86483
G1 X123.078 Y137.319 E6.88151
G1 X122.597 Y137.449 E6.89808
G1 X122.164 Y137.555 E6.91291
G1 X121.678 Y137.662 E6.92946
G1 X121.192 Y137.757 E6.94593
G1 X120.644 Y137.849 E6.96441
G1 X120.312 Y137.896 E6.97557
G1 X119.713 Y137.964 E6.99562
G1 X118.76 Y138.044 E7.02743
G1 X117.873 Y138.081 E7.05695
G1 X117.06 Y138.081 E7.08399
G1 X116.048 Y138.033 E7.11769
G1 X115.037 Y137.936 E7.15147
G1 X114.262 Y137.832 E7.17748
G1 X113.689 Y137.734 E7.19681
G1 X113.067 Y137.609 E7.21791
G1 X112.587 Y137.497 E7.23431
G1 X112.098 Y137.37 E7.25111
G1 X111.616 Y137.233 E7.26778
G1 X111.109 Y137.075 E7.28544
G1 X110.658 Y136.922 E7.30128
G1 X110.173 Y136.744 E7.31846
G1 X109.808 Y136.6 E7.33152
G1 X109.275 Y136.376 E7.35074
G1 X108.664 Y136.098 E7.37307
G1 X108.21 Y135.876 E7.38988
G1 X107.832 Y135.68 E7.40404
G1 X107.372 Y135.427 E7.4215
G1 X106.902 Y135.153 E7.4396
G1 X106.468 Y134.886 E7.45655
G1 X106.103 Y134.649 E7.47102
G1 X105.658 Y134.344 E7.48896
G1 X105.201 Y134.013 E7.50773
G1 X104.75 Y133.667 E7.52664
G1 X104.346 Y133.34 E7.54392
G1 X103.948 Y133.002 E7.56129
G1 X103.645 Y132.731 E7.57481
G1 X103.274 Y132.383 E7.59173
G1 X102.815 Y131.931 E7.61316
G1 X102.394 Y131.491 E7.63341
G1 X102.07 Y131.133 E7.64947
G1 X101.727 Y130.735 E7.66695
G1 X101.42 Y130.36 E7.68306
G1 X101.114 Y129.967 E7.69963
G1 X100.793 Y129.535 E7.71753
G1 X100.442 Y129.034 E7.73788
G1 X100.168 Y128.617 E7.75447
G1 X99.905 Y128.195 E7.77101
G1 X99.673 Y127.803 E7.78616
G1 X99.428 Y127.366 E7.80283
G1 X99.17 Y126.879 E7.82116
G1 X98.914 Y126.362 E7.84034
G1 X98.708 Y125.916 E7.85668
G1 X98.516 Y125.474 E7.87271
G1 X98.339 Y125.04 E7.8883
G1 X98.132 Y124.489 E7.90788
G1 X97.967 Y124.01 E7.92473
G1 X97.823 Y123.559 E7.94047
G1 X97.681 Y123.078 E7.95716
G1 X97.551 Y122.597 E7.97373
G1 X97.445 Y122.164 E7.98855
G1 X97.338 Y121.678 E8.00511
G1 X97.243 Y121.192 E8.02158
G1 X97.151 Y120.644 E8.04006
G1 X97.104 Y120.312 E8.05121
G1 X97.036 Y119.715 E8.07119
G1 X96.956 Y118.764 E8.10294
G1 X96.919 Y117.875 E8.13253
G1 X96.919 Y117.06 E8.15964
G1 X96.967 Y116.049 E8.1933
G1 X97.066 Y115.016 E8.22782
G1 X97.175 Y114.211 E8.25484
G1 X97.271 Y113.659 E8.27347
G1 X97.394 Y113.057 E8.29391
G1 X97.506 Y112.579 E8.31024
G1 X97.63 Y112.099 E8.32673
G1 X97.767 Y111.617 E8.34339
G1 X97.927 Y111.103 E8.3613
G1 X98.081 Y110.65 E8.37721
G1 X98.245 Y110.2 E8.39314
G1 X98.387 Y109.837 E8.4061
G1 X98.623 Y109.276 E8.42635
G1 X98.729 Y109.039 E8.43498
G1 X98.911 Y108.645 E8.44942
G1 X99.119 Y108.221 E8.46513
G1 X99.315 Y107.842 E8.47932
G1 X99.569 Y107.378 E8.49691
G1 X99.842 Y106.909 E8.51496
G1 X100.113 Y106.469 E8.53215
G1 X100.35 Y106.104 E8.54662
G1 X100.658 Y105.656 E8.5647
G1 X100.99 Y105.198 E8.58352
G1 X101.333 Y104.75 E8.60228
G1 X101.66 Y104.346 E8.61957
G1 X101.998 Y103.948 E8.63694
G1 X102.269 Y103.645 E8.65046
G1 X102.617 Y103.274 E8.66738
G1 X103.069 Y102.815 E8.6888
G0 F6000 X103.354 Y103.096
G1 F1200 X103.778 Y102.69 E8.70833
G1 X104.136 Y102.366 E8.72439
G1 X104.519 Y102.037 E8.74118
G1 X104.894 Y101.73 E8.7573
G1 X105.272 Y101.434 E8.77327
G1 X105.692 Y101.122 E8.79067
G1 X106.158 Y100.796 E8.80959
G1 X106.587 Y100.513 E8.82668
G1 X107.014 Y100.246 E8.84343
G1 X107.415 Y100.009 E8.85892
G1 X107.833 Y99.775 E8.87486
G1 X108.309 Y99.523 E8.89277
G1 X108.803 Y99.279 E8.91109
G1 X109.251 Y99.072 E8.92751
G1 X109.677 Y98.886 E8.94297
G1 X110.111 Y98.709 E8.95856
G1 X110.641 Y98.51 E8.97739
G1 X111.12 Y98.345 E8.99424
G1 X111.554 Y98.206 E9.0094
G1 X112.035 Y98.064 E9.02608
G1 X112.498 Y97.94 E9.04202
G1 X112.931 Y97.834 E9.05684
G1 X113.399 Y97.73 E9.07279
G1 X113.885 Y97.635 E9.08926
G1 X114.412 Y97.547 E9.10703
G1 X114.744 Y97.5 E9.11818
G1 X115.321 Y97.435 E9.1375
G1 X116.274 Y97.355 E9.1693
G1 X117.127 Y97.319 E9.1977
G1 X117.937 Y97.319 E9.22464
G1 X118.908 Y97.365 E9.25697
G1 X119.922 Y97.462 E9.29085
G1 X120.671 Y97.562 E9.31599
G1 X121.244 Y97.66 E9.33532
G1 X121.842 Y97.781 E9.35561
G1 X122.322 Y97.893 E9.37201
