;FLAVOR:Marlin
;TIME:330
;Filament used: 0.247901m
;Layer height: 0.2
;MINX:96.511
;MINY:96.515
;MINZ:0.2
;MAXX:138.479
;MAXY:138.487
;MAXZ:5
;Generated with Cura_SteamEngine 4.5.0
M140 S50
M105
M190 S50
M104 S200
M105
M109 S200
M82 ;absolute extrusion mode
; Ender 3 Custom Start G-code
G92 E0 ; Reset Extruder
G28 ; Home all axes
G1 Z2.0 F3000 ; Move Z Axis up little to prevent scratching of Heat Bed
G1 X0.1 Y20 Z0.3 F5000.0 ; Move to start position
G1 X0.1 Y200.0 Z0.3 F1500.0 E15 ; Draw the first line
G1 X0.4 Y200.0 Z0.3 F5000.0 ; Move to side a little
G1 X0.4 Y20 Z0.3 F1500.0 E30 ; Draw the second line
G92 E0 ; Reset Extruder
G1 Z2.0 F3000 ; Move Z Axis up little to prevent scratching of Heat Bed
G1 X5 Y20 Z0.3 F5000.0 ; Move over to prevent blob squish
G92 E0
G92 E0
G1 F2700 E-5
;LAYER_COUNT:25
;LAYER:0
M107
G0 F6000 X102.351 Y102.973 Z0.2
;TYPE:SKIRT
G1 F2700 E0
G1 F1200 X102.975 Y102.349 E0.02935
G1 X103.202 Y102.132 E0.0398
G1 X103.719 Y101.668 E0.0629
G1 X104.371 Y101.125 E0.09112
G1 X104.629 Y100.92 E0.10208
G1 X105.146 Y100.533 E0.12356
G1 X105.848 Y100.043 E0.15204
G1 X106.103 Y99.873 E0.16223
G1 X106.712 Y99.495 E0.18607
G1 X107.451 Y99.074 E0.21436
G1 X107.716 Y98.93 E0.22439
G1 X108.33 Y98.62 E0.24727
G1 X108.829 Y98.388 E0.26557
G1 X109.447 Y98.118 E0.288
G1 X110.018 Y97.892 E0.30842
G1 X110.534 Y97.704 E0.32669
G1 X110.892 Y97.58 E0.33929
G1 X111.202 Y97.479 E0.35014
G1 X111.788 Y97.306 E0.37046
G1 X112.614 Y97.091 E0.39885
G1 X112.946 Y97.012 E0.4102
G1 X113.656 Y96.867 E0.4343
G1 X114.447 Y96.737 E0.46096
G1 X114.792 Y96.688 E0.47255
G1 X115.424 Y96.617 E0.4937
G1 X116.322 Y96.547 E0.52366
G1 X116.619 Y96.531 E0.53355
G1 X117.285 Y96.515 E0.55571
G1 X117.876 Y96.519 E0.57537
G1 X118.537 Y96.539 E0.59736
G1 X119.146 Y96.579 E0.61766
G1 X119.698 Y96.631 E0.6361
G1 X120.357 Y96.709 E0.65817
G1 X120.996 Y96.809 E0.67969
G1 X121.855 Y96.973 E0.70877
G1 X122.176 Y97.042 E0.71969
G1 X122.819 Y97.2 E0.74172
G1 X123.623 Y97.429 E0.76952
G1 X123.965 Y97.535 E0.78143
G1 X124.599 Y97.753 E0.80373
G1 X125.104 Y97.944 E0.82169
G1 X125.724 Y98.195 E0.84393
G1 X126.3 Y98.451 E0.8649
G1 X126.787 Y98.685 E0.88287
G1 X127.365 Y98.979 E0.90444
G1 X127.934 Y99.295 E0.92608
G1 X128.413 Y99.58 E0.94462
G1 X128.975 Y99.932 E0.96668
G1 X129.524 Y100.304 E0.98874
G1 X130.242 Y100.829 E1.01832
G1 X130.484 Y101.015 E1.02847
G1 X130.982 Y101.421 E1.04984
G1 X131.631 Y101.989 E1.07853
G1 X131.854 Y102.193 E1.08858
G1 X132.351 Y102.677 E1.11165
G1 X132.979 Y103.335 E1.14191
G1 X133.186 Y103.562 E1.15212
G1 X133.628 Y104.078 E1.17472
G1 X134.158 Y104.743 E1.203
G1 X134.348 Y104.993 E1.21345
G1 X134.726 Y105.522 E1.23507
G1 X135.062 Y106.023 E1.25514
G1 X135.409 Y106.567 E1.2766
G1 X135.701 Y107.062 E1.29571
G1 X135.966 Y107.539 E1.31386
G1 X136.155 Y107.895 E1.32727
G1 X136.305 Y108.19 E1.33827
G1 X136.572 Y108.755 E1.35906
G1 X136.921 Y109.561 E1.38827
G1 X137.052 Y109.885 E1.3999
G1 X137.277 Y110.492 E1.42143
G1 X137.542 Y111.291 E1.44943
G1 X137.64 Y111.612 E1.46059
G1 X137.809 Y112.232 E1.48196
G1 X138.006 Y113.06 E1.51027
G1 X138.079 Y113.402 E1.5219
G1 X138.202 Y114.087 E1.54505
G1 X138.32 Y114.912 E1.57277
G1 X138.364 Y115.28 E1.58509
G1 X138.423 Y115.933 E1.6069
G1 X138.468 Y116.763 E1.63455
G1 X138.479 Y117.115 E1.64626
G1 X138.479 Y117.776 E1.66825
G1 X138.45 Y118.628 E1.6966
G1 X138.429 Y118.984 E1.70846
G1 X138.375 Y119.601 E1.72906
G1 X138.311 Y120.154 E1.74758
G1 X138.264 Y120.509 E1.75949
G1 X138.215 Y120.838 E1.77055
G1 X138.105 Y121.456 E1.79143
G1 X137.999 Y121.966 E1.80875
G1 X137.922 Y122.309 E1.82045
G1 X137.838 Y122.657 E1.83235
G1 X137.679 Y123.244 E1.85258
G1 X137.522 Y123.766 E1.87071
G1 X137.414 Y124.105 E1.88254
G1 X137.303 Y124.435 E1.89412
G1 X137.077 Y125.045 E1.91576
G1 X136.758 Y125.825 E1.94379
G1 X136.623 Y126.134 E1.95501
G1 X136.351 Y126.711 E1.97622
G1 X136.091 Y127.223 E1.99532
G1 X135.766 Y127.824 E2.01805
G1 X135.46 Y128.346 E2.03817
G1 X134.981 Y129.104 E2.06799
G1 X134.791 Y129.388 E2.07936
G1 X134.433 Y129.891 E2.09989
G1 X134.118 Y130.309 E2.1173
G1 X133.895 Y130.596 E2.12939
G1 X133.678 Y130.865 E2.14089
G1 X133.261 Y131.352 E2.16221
G1 X132.877 Y131.775 E2.18121
G1 X132.451 Y132.223 E2.20177
G1 X132.007 Y132.658 E2.22245
G1 X131.54 Y133.09 E2.24361
G1 X131.074 Y133.502 E2.26429
G1 X130.582 Y133.906 E2.28547
G1 X129.9 Y134.427 E2.31401
G1 X129.632 Y134.622 E2.32504
G1 X129.087 Y134.994 E2.34698
G1 X128.607 Y135.301 E2.36593
G1 X128.034 Y135.648 E2.38821
G1 X127.508 Y135.942 E2.40826
G1 X126.984 Y136.216 E2.42792
G1 X126.647 Y136.385 E2.44046
G1 X126.372 Y136.517 E2.45061
G1 X125.826 Y136.761 E2.4705
G1 X125.322 Y136.97 E2.48865
G1 X124.692 Y137.214 E2.51112
G1 X124.089 Y137.423 E2.53234
G1 X123.557 Y137.59 E2.55089
G1 X123.197 Y137.696 E2.56337
G1 X122.89 Y137.781 E2.57397
G1 X122.313 Y137.924 E2.59374
G1 X121.43 Y138.113 E2.62377
G1 X121.1 Y138.175 E2.63494
G1 X120.457 Y138.276 E2.65659
G1 X119.622 Y138.378 E2.68457
G1 X119.285 Y138.411 E2.69583
G1 X118.636 Y138.455 E2.71746
G1 X118.064 Y138.477 E2.7365
G1 X117.411 Y138.487 E2.75822
G1 X116.794 Y138.474 E2.77875
G1 X116.208 Y138.445 E2.79827
G1 X115.538 Y138.395 E2.82061
G1 X114.912 Y138.326 E2.84156
G1 X114.044 Y138.2 E2.87073
G1 X113.693 Y138.14 E2.88257
G1 X113.062 Y138.013 E2.90398
G1 X112.247 Y137.819 E2.93185
G1 X111.919 Y137.733 E2.94312
G1 X111.291 Y137.548 E2.9649
G1 X110.453 Y137.269 E2.99428
G1 X110.129 Y137.152 E3.00573
G1 X109.537 Y136.919 E3.02689
G1 X109.037 Y136.705 E3.04498
G1 X108.457 Y136.441 E3.06618
G1 X107.882 Y136.155 E3.08754
G1 X107.356 Y135.873 E3.10739
G1 X106.77 Y135.539 E3.12982
G1 X106.254 Y135.22 E3.15
G1 X105.77 Y134.902 E3.16926
G1 X105.235 Y134.533 E3.19088
G1 X104.73 Y134.157 E3.21182
G1 X104.304 Y133.82 E3.22988
G1 X104.014 Y133.582 E3.24236
G1 X103.744 Y133.353 E3.25414
G1 X103.315 Y132.969 E3.27329
G1 X102.933 Y132.609 E3.29075
G1 X102.665 Y132.349 E3.30316
G1 X102.434 Y132.116 E3.31408
G1 X102.009 Y131.662 E3.33476
G1 X101.608 Y131.209 E3.35488
G1 X101.196 Y130.722 E3.3761
G1 X100.787 Y130.2 E3.39816
G1 X100.293 Y129.521 E3.42608
G1 X100.09 Y129.227 E3.43797
G1 X99.748 Y128.701 E3.45883
G1 X99.283 Y127.929 E3.48881
G1 X99.136 Y127.671 E3.49869
G1 X98.829 Y127.091 E3.52051
G1 X98.575 Y126.576 E3.53961
G1 X98.422 Y126.252 E3.55153
G1 X98.281 Y125.941 E3.56289
G1 X98.046 Y125.383 E3.58302
G1 X97.863 Y124.912 E3.59983
G1 X97.738 Y124.576 E3.61175
G1 X97.622 Y124.246 E3.62339
G1 X97.434 Y123.659 E3.64389
G1 X97.279 Y123.124 E3.66241
G1 X97.188 Y122.79 E3.67393
G1 X97.101 Y122.45 E3.6856
G1 X96.964 Y121.841 E3.70636
G1 X96.86 Y121.311 E3.72433
G1 X96.799 Y120.974 E3.73572
G1 X96.746 Y120.651 E3.7466
G1 X96.662 Y120.025 E3.76761
G1 X96.603 Y119.466 E3.78631
G1 X96.571 Y119.107 E3.7983
G1 X96.548 Y118.79 E3.80887
G1 X96.52 Y118.164 E3.82971
G1 X96.511 Y117.265 E3.85961
G1 X96.515 Y116.964 E3.86962
G1 X96.543 Y116.318 E3.89113
G1 X96.583 Y115.764 E3.9096
G1 X96.615 Y115.399 E3.92179
G1 X96.65 Y115.068 E3.93286
G1 X96.73 Y114.468 E3.95299
G1 X96.824 Y113.887 E3.97257
G1 X96.941 Y113.256 E3.99391
G1 X97.087 Y112.605 E4.0161
G1 X97.283 Y111.856 E4.04185
G1 X97.382 Y111.506 E4.05395
G1 X97.597 Y110.83 E4.07755
G1 X97.891 Y110.013 E4.10642
G1 X98.01 Y109.704 E4.11744
G1 X98.26 Y109.108 E4.13893
G1 X98.608 Y108.35 E4.16668
G1 X98.754 Y108.051 E4.17774
G1 X99.073 Y107.447 E4.20046
G1 X99.496 Y106.71 E4.22872
G1 X99.646 Y106.46 E4.23842
G1 X100.03 Y105.864 E4.262
G1 X100.554 Y105.114 E4.29243
G1 X100.754 Y104.843 E4.30364
G1 X101.13 Y104.363 E4.32392
G1 X101.666 Y103.722 E4.35171
G1 X101.907 Y103.448 E4.36384
G1 X102.351 Y102.973 E4.38547
G0 F6000 X102.635 Y103.254
G1 F1200 X103.251 Y102.638 E4.41444
G1 X103.478 Y102.421 E4.42489
G1 X103.976 Y101.974 E4.44715
G1 X104.62 Y101.438 E4.47501
G1 X104.878 Y101.233 E4.48597
G1 X105.376 Y100.86 E4.50667
G1 X106.07 Y100.376 E4.53481
G1 X106.325 Y100.206 E4.545
G1 X106.912 Y99.842 E4.56798
G1 X107.642 Y99.425 E4.59594
G1 X107.907 Y99.281 E4.60597
G1 X108.499 Y98.983 E4.62801
G1 X108.998 Y98.751 E4.64632
G1 X109.605 Y98.486 E4.66834
G1 X110.155 Y98.267 E4.68803
G1 X110.671 Y98.079 E4.7063
G1 X111.016 Y97.96 E4.71844
G1 X111.326 Y97.859 E4.72928
G1 X111.89 Y97.693 E4.74884
G1 X112.706 Y97.48 E4.77689
G1 X113.038 Y97.401 E4.78824
G1 X113.722 Y97.262 E4.81145
G1 X114.503 Y97.133 E4.83778
G1 X114.848 Y97.084 E4.84937
G1 X115.457 Y97.016 E4.86975
G1 X116.344 Y96.946 E4.89935
G1 X116.641 Y96.93 E4.90924
G1 X117.283 Y96.915 E4.9306
G1 X117.874 Y96.919 E4.95025
G1 X118.521 Y96.939 E4.97178
G1 X119.108 Y96.978 E4.99135
G1 X119.989 Y97.066 E5.0208
G1 X120.307 Y97.106 E5.03146
G1 X120.923 Y97.202 E5.05219
G1 X121.771 Y97.364 E5.08091
G1 X122.092 Y97.433 E5.09183
G1 X122.712 Y97.586 E5.11307
G1 X123.504 Y97.811 E5.14045
G1 X123.846 Y97.917 E5.15236
G1 X124.458 Y98.127 E5.17388
G1 X125.249 Y98.431 E5.20207
G1 X125.572 Y98.564 E5.21369
G1 X126.127 Y98.812 E5.2339
G1 X126.895 Y99.186 E5.26232
G1 X127.181 Y99.334 E5.27303
G1 X127.729 Y99.639 E5.29389
G1 X128.473 Y100.086 E5.32275
G1 X128.761 Y100.269 E5.3341
G1 X129.29 Y100.628 E5.35537
G1 X129.999 Y101.147 E5.38459
G1 X130.241 Y101.333 E5.39474
G1 X130.72 Y101.724 E5.41531
G1 X131.361 Y102.284 E5.44362
G1 X131.584 Y102.488 E5.45367
G1 X132.062 Y102.954 E5.47587
G1 X132.683 Y103.605 E5.5058
G1 X132.89 Y103.832 E5.51601
G1 X133.316 Y104.329 E5.53779
G1 X133.839 Y104.985 E5.56569
G1 X134.029 Y105.235 E5.57613
G1 X134.393 Y105.745 E5.59697
G1 X134.911 Y106.526 E5.62814
G1 X135.07 Y106.78 E5.63811
G1 X135.351 Y107.256 E5.6565
G1 X135.616 Y107.733 E5.67465
G1 X135.799 Y108.077 E5.68761
G1 X135.949 Y108.372 E5.69861
G1 X136.206 Y108.915 E5.71859
G1 X136.55 Y109.711 E5.74743
G1 X136.681 Y110.035 E5.75906
G1 X136.898 Y110.619 E5.77978
G1 X137.159 Y111.408 E5.80742
G1 X137.257 Y111.729 E5.81858
G1 X137.42 Y112.326 E5.83917
G1 X137.614 Y113.143 E5.8671
G1 X137.687 Y113.485 E5.87873
G1 X137.807 Y114.145 E5.90104
G1 X137.923 Y114.96 E5.92842
G1 X137.967 Y115.328 E5.94075
G1 X138.023 Y115.956 E5.96172
G1 X138.068 Y116.776 E5.98903
G1 X138.079 Y117.128 E6.00074
G1 X138.08 Y117.764 E6.0219
G1 X138.051 Y118.604 E6.04985
G1 X138.03 Y118.96 E6.06171
G1 X137.978 Y119.555 E6.08158
G1 X137.914 Y120.108 E6.10009
G1 X137.819 Y120.779 E6.12263
G1 X137.713 Y121.375 E6.14277
G1 X137.607 Y121.885 E6.16009
G1 X137.533 Y122.215 E6.17134
G1 X137.449 Y122.563 E6.18325
G1 X137.296 Y123.129 E6.20275
G1 X137.139 Y123.651 E6.22088
G1 X137.035 Y123.977 E6.23226
G1 X136.924 Y124.307 E6.24384
G1 X136.706 Y124.896 E6.26473
G1 X136.391 Y125.665 E6.29237
G1 X136.256 Y125.974 E6.30359
G1 X135.994 Y126.529 E6.324
G1 X135.734 Y127.041 E6.3431
G1 X135.568 Y127.356 E6.35494
G1 X135.416 Y127.632 E6.36542
G1 X135.121 Y128.134 E6.38479
G1 X134.828 Y128.603 E6.40318
G1 X134.648 Y128.881 E6.41419
G1 X134.458 Y129.165 E6.42556
G1 X134.113 Y129.65 E6.44536
G1 X133.798 Y130.068 E6.46276
G1 X133.583 Y130.344 E6.4744
G1 X133.366 Y130.613 E6.4859
G1 X132.964 Y131.083 E6.50647
G1 X132.58 Y131.506 E6.52547
G1 X132.163 Y131.945 E6.54561
G1 X131.735 Y132.364 E6.56553
G1 X131.268 Y132.796 E6.58669
G1 X130.811 Y133.2 E6.60697
G1 X130.337 Y133.589 E6.62737
G1 X129.665 Y134.103 E6.65551
G1 X129.397 Y134.298 E6.66653
G1 X128.871 Y134.657 E6.68771
G1 X128.391 Y134.964 E6.70666
G1 X127.83 Y135.304 E6.72848
G1 X127.323 Y135.587 E6.74779
G1 X126.799 Y135.861 E6.76746
G1 X126.474 Y136.024 E6.77955
G1 X126.199 Y136.156 E6.7897
G1 X125.672 Y136.391 E6.80889
G1 X124.864 Y136.721 E6.83792
G1 X124.55 Y136.84 E6.84909
G1 X123.969 Y137.041 E6.86954
G1 X123.437 Y137.208 E6.88808
G1 X123.09 Y137.311 E6.90012
G1 X122.783 Y137.396 E6.91072
G1 X122.227 Y137.534 E6.92977
G1 X121.356 Y137.72 E6.95939
G1 X121.026 Y137.782 E6.97056
G1 X120.406 Y137.879 E6.99143
G1 X119.583 Y137.98 E7.01901
G1 X119.246 Y138.013 E7.03027
G1 X118.62 Y138.055 E7.05114
G1 X117.711 Y138.085 E7.08139
G1 X117.408 Y138.087 E7.09147
G1 X116.814 Y138.074 E7.11123
G1 X116.228 Y138.045 E7.13074
G1 X115.888 Y138.023 E7.14208
G1 X115.57 Y137.997 E7.15269
G1 X114.968 Y137.93 E7.17284
G1 X114.431 Y137.855 E7.19087
G1 X114.111 Y137.805 E7.20164
G1 X113.76 Y137.745 E7.21349
G1 X113.152 Y137.623 E7.23411
G1 X112.349 Y137.432 E7.26156
G1 X112.021 Y137.346 E7.27284
G1 X111.415 Y137.168 E7.29385
G1 X110.589 Y136.893 E7.3228
G1 X110.265 Y136.776 E7.33426
G1 X109.694 Y136.551 E7.35467
G1 X109.194 Y136.337 E7.37276
G1 X108.625 Y136.078 E7.39356
G1 X108.071 Y135.802 E7.41414
G1 X107.545 Y135.52 E7.43399
G1 X106.971 Y135.193 E7.45597
G1 X106.473 Y134.886 E7.47542
G1 X105.989 Y134.568 E7.49469
G1 X105.465 Y134.206 E7.51587
G1 X104.979 Y133.843 E7.53604
G1 X104.553 Y133.506 E7.55411
G1 X104.273 Y133.277 E7.56614
G1 X104.003 Y133.048 E7.57792
G1 X103.589 Y132.678 E7.59638
G1 X103.207 Y132.318 E7.61384
G1 X102.949 Y132.067 E7.62581
G1 X102.718 Y131.834 E7.63673
G1 X102.309 Y131.397 E7.65663
G1 X101.908 Y130.944 E7.67676
G1 X101.504 Y130.466 E7.69757
G1 X101.109 Y129.963 E7.71884
G1 X100.622 Y129.294 E7.74637
G1 X100.419 Y129 E7.75825
G1 X100.09 Y128.493 E7.77835
G1 X99.631 Y127.731 E7.80794
G1 X99.484 Y127.473 E7.81781
G1 X99.187 Y126.914 E7.83887
G1 X98.933 Y126.399 E7.85797
G1 X98.786 Y126.087 E7.86944
G1 X98.645 Y125.776 E7.8808
G1 X98.419 Y125.238 E7.9002
G1 X98.236 Y124.767 E7.91701
G1 X98.116 Y124.443 E7.9285
G1 X98 Y124.113 E7.94014
G1 X97.819 Y123.548 E7.95987
G1 X97.664 Y123.013 E7.9784
G1 X97.576 Y122.691 E7.9895
G1 X97.489 Y122.351 E8.00117
G1 X97.356 Y121.764 E8.02119
G1 X97.252 Y121.234 E8.03915
G1 X97.141 Y120.586 E8.06102
G1 X97.06 Y119.983 E8.08126
G1 X97.001 Y119.424 E8.09995
G1 X96.97 Y119.078 E8.11151
G1 X96.947 Y118.761 E8.12208
G1 X96.92 Y118.158 E8.14215
G1 X96.911 Y117.27 E8.17169
G1 X96.915 Y116.969 E8.1817
G1 X96.942 Y116.347 E8.20241
G1 X96.982 Y115.793 E8.22088
G1 X97.013 Y115.441 E8.23264
G1 X97.048 Y115.11 E8.24371
G1 X97.125 Y114.532 E8.2631
G1 X97.219 Y113.951 E8.28268
G1 X97.334 Y113.332 E8.30362
G1 X97.475 Y112.705 E8.32499
G1 X97.668 Y111.965 E8.35043
G1 X97.767 Y111.615 E8.36252
G1 X97.974 Y110.963 E8.38528
G1 X98.264 Y110.157 E8.41377
G1 X98.383 Y109.848 E8.42478
G1 X98.624 Y109.274 E8.44549
G1 X98.968 Y108.526 E8.47287
G1 X99.114 Y108.227 E8.48394
G1 X99.421 Y107.644 E8.50585
G1 X99.839 Y106.915 E8.5338
G1 X99.989 Y106.665 E8.5435
G1 X100.359 Y106.091 E8.56621
G1 X100.686 Y105.618 E8.58534
G1 X100.876 Y105.352 E8.59621
G1 X101.076 Y105.081 E8.60741
G1 X101.438 Y104.618 E8.62696
G1 X101.967 Y103.986 E8.65437
G1 X102.208 Y103.712 E8.66651
G1 X102.635 Y103.254 E8.68734
G0 F6000 X102.919 Y103.536
G1 F1200 X103.528 Y102.927 E8.71598
G1 X103.755 Y102.71 E8.72643
G1 X104.234 Y102.28 E8.74784
G1 X104.869 Y101.751 E8.77532
G1 X105.127 Y101.546 E8.78628
G1 X105.606 Y101.187 E8.80619
G1 X106.292 Y100.709 E8.834
G1 X106.547 Y100.539 E8.8442
G1 X107.112 Y100.189 E8.8663
G1 X107.833 Y99.777 E8.89392
G1 X108.098 Y99.633 E8.90395
G1 X108.668 Y99.346 E8.92518
G1 X109.445 Y98.989 E8.95362
G1 X109.762 Y98.853 E8.96509
G1 X110.292 Y98.643 E8.98405
G1 X110.808 Y98.455 E9.00232
G1 X111.14 Y98.341 E9.01399
G1 X111.45 Y98.24 E9.02484
G1 X111.993 Y98.079 E9.04367
G1 X112.799 Y97.869 E9.07138
G1 X113.131 Y97.79 E9.08273
G1 X113.789 Y97.656 E9.10506
G1 X114.56 Y97.529 E9.13105
G1 X114.905 Y97.48 E9.14264
G1 X115.49 Y97.414 E9.16222
G1 X116.065 Y97.366 E9.18141
G1 X116.662 Y97.33 E9.20131
G1 X117.28 Y97.315 E9.22187
G1 X117.871 Y97.319 E9.24152
G1 X118.506 Y97.339 E9.26265
G1 X119.071 Y97.376 E9.28149
G1 X119.623 Y97.428 E9.29993
G1 X120.257 Y97.503 E9.32116
G1 X120.85 Y97.595 E9.34112
G1 X121.687 Y97.755 E9.36946
G1 X122.008 Y97.824 E9.38038
G1 X122.604 Y97.971 E9.4008
G1 X123.386 Y98.193 E9.42784
G1 X123.728 Y98.299 E9.43975
G1 X124.316 Y98.502 E9.46044
G1 X125.097 Y98.801 E9.48825
G1 X125.42 Y98.934 E9.49987
G1 X125.954 Y99.172 E9.51931
G1 X126.711 Y99.541 E9.54732
G1 X126.997 Y99.689 E9.55804
G1 X127.525 Y99.982 E9.57812
G1 X128.004 Y100.267 E9.59666
G1 X128.546 Y100.607 E9.61794
G1 X129.055 Y100.952 E9.63839
G1 X129.755 Y101.464 E9.66723
G1 X129.997 Y101.65 E9.67739
G1 X130.458 Y102.026 E9.69717
G1 X131.091 Y102.579 E9.72513
