;FLAVOR:Marlin
;TIME:6349
;Filament used: 2.96037m
;Layer height: 0.2
;MINX:76.505
;MINY:76.505
;MINZ:0.2
;MAXX:158.492
;MAXY:158.495
;MAXZ:71
;Generated with Cura_SteamEngine 4.5.0
M140 S50
M105
M190 S50
M104 S210
M105
M109 S210
M82 ;absolute extrusion mode
; Ender 3 Custom Start G-code
G92 E0 ; Reset Extruder
G28 ; Home all axes
G1 Z2.0 F3000 ; Move Z Axis up little to prevent scratching of Heat Bed
G1 X0.1 Y20 Z0.3 F5000.0 ; Move to start position
G1 X0.1 Y200.0 Z0.3 F1500.0 E15 ; Draw the first line
G1 X0.4 Y200.0 Z0.3 F5000.0 ; Move to side a little
G1 X0.4 Y20 Z0.3 F1500.0 E30 ; Draw the second line
G92 E0 ; Reset Extruder
G1 Z2.0 F3000 ; Move Z Axis up little to prevent scratching of Heat Bed
G1 X5 Y20 Z0.3 F5000.0 ; Move over to prevent blob squish
G92 E0
G92 E0
G1 F2700 E-5
;LAYER_COUNT:355
;LAYER:0
M107
G0 F3000 X88.504 Y88.523 Z0.2
;TYPE:SKIRT
G1 F2700 E0
G1 F1200 X89.271 Y87.775 E0.03563
G1 X90.02 Y87.081 E0.0696
G1 X90.833 Y86.367 E0.10558
G1 X91.602 Y85.725 E0.1389
G1 X92.468 Y85.038 E0.17567
G1 X93.282 Y84.426 E0.20954
G1 X94.085 Y83.852 E0.24237
G1 X95.012 Y83.225 E0.27959
G1 X95.867 Y82.68 E0.31332
G1 X96.756 Y82.143 E0.34786
G1 X97.619 Y81.651 E0.3809
G1 X98.559 Y81.146 E0.41639
G1 X99.407 Y80.716 E0.44801
G1 X100.411 Y80.239 E0.48498
G1 X101.322 Y79.834 E0.51814
G1 X102.177 Y79.478 E0.54895
G1 X103.194 Y79.084 E0.58522
G1 X104.076 Y78.767 E0.6164
G1 X105.023 Y78.452 E0.64959
G1 X106.041 Y78.14 E0.685
G1 X106.926 Y77.894 E0.71555
G1 X107.897 Y77.647 E0.74888
G1 X108.783 Y77.444 E0.77911
G1 X109.728 Y77.25 E0.8112
G1 X110.736 Y77.068 E0.84527
G1 X111.731 Y76.914 E0.87875
G1 X112.715 Y76.787 E0.91175
G1 X113.65 Y76.688 E0.94302
G1 X114.759 Y76.598 E0.98003
G1 X115.575 Y76.552 E1.00721
G1 X116.774 Y76.51 E1.04712
G1 X117.219 Y76.505 E1.06192
G1 X117.975 Y76.508 E1.08706
G1 X119.095 Y76.537 E1.12433
G1 X120.155 Y76.592 E1.15963
G1 X121.062 Y76.66 E1.18988
G1 X122.015 Y76.755 E1.22174
G1 X123.105 Y76.89 E1.25827
G1 X123.923 Y77.012 E1.28578
G1 X124.985 Y77.195 E1.32162
G1 X125.856 Y77.366 E1.35114
G1 X126.92 Y77.603 E1.3874
G1 X127.847 Y77.833 E1.41916
G1 X128.787 Y78.091 E1.45158
G1 X129.865 Y78.415 E1.48902
G1 X130.725 Y78.698 E1.51914
G1 X131.685 Y79.039 E1.55302
G1 X132.723 Y79.437 E1.59
G1 X133.67 Y79.829 E1.62408
G1 X134.549 Y80.221 E1.6561
G1 X135.573 Y80.705 E1.69377
G1 X136.434 Y81.141 E1.72587
G1 X137.429 Y81.676 E1.76344
G1 X138.253 Y82.147 E1.79501
G1 X139.135 Y82.679 E1.82927
G1 X140.045 Y83.262 E1.86521
G1 X140.922 Y83.857 E1.90046
G1 X141.713 Y84.421 E1.93277
G1 X142.551 Y85.052 E1.96766
G1 X143.412 Y85.734 E2.00419
G1 X144.148 Y86.35 E2.03612
G1 X144.996 Y87.096 E2.07368
G1 X145.759 Y87.802 E2.10826
G1 X146.477 Y88.504 E2.14165
G1 X147.225 Y89.271 E2.17729
G1 X147.913 Y90.014 E2.21097
G1 X148.617 Y90.814 E2.24641
G1 X149.275 Y91.602 E2.28056
G1 X149.962 Y92.468 E2.31732
G1 X150.574 Y93.282 E2.35119
G1 X151.148 Y94.085 E2.38402
G1 X151.775 Y95.012 E2.42125
G1 X152.32 Y95.867 E2.45497
G1 X152.857 Y96.756 E2.48951
G1 X153.349 Y97.619 E2.52255
G1 X153.854 Y98.559 E2.55805
G1 X154.282 Y99.402 E2.58949
G1 X154.764 Y100.416 E2.62683
G1 X155.162 Y101.313 E2.65947
G1 X155.513 Y102.155 E2.68981
G1 X155.916 Y103.194 E2.72688
G1 X156.233 Y104.076 E2.75805
G1 X156.548 Y105.023 E2.79125
G1 X156.857 Y106.032 E2.82634
G1 X157.106 Y106.922 E2.85708
G1 X157.35 Y107.882 E2.89003
G1 X157.556 Y108.783 E2.92077
G1 X157.75 Y109.728 E2.95285
G1 X157.931 Y110.733 E2.98682
G1 X158.085 Y111.726 E3.02024
G1 X158.214 Y112.717 E3.05348
G1 X158.311 Y113.648 E3.08461
G1 X158.402 Y114.759 E3.12169
G1 X158.448 Y115.578 E3.14897
G1 X158.484 Y116.548 E3.18125
G1 X158.492 Y116.914 E3.19343
G1 X158.492 Y117.996 E3.22942
G1 X158.463 Y119.103 E3.26625
G1 X158.41 Y120.143 E3.30089
G1 X158.34 Y121.065 E3.33164
G1 X158.245 Y122.017 E3.36346
G1 X158.111 Y123.101 E3.39979
G1 X157.988 Y123.923 E3.42743
G1 X157.805 Y124.985 E3.46328
G1 X157.634 Y125.854 E3.49273
G1 X157.401 Y126.904 E3.52851
G1 X157.166 Y127.851 E3.56096
G1 X156.912 Y128.779 E3.59296
G1 X156.583 Y129.872 E3.63092
G1 X156.301 Y130.729 E3.66093
G1 X155.96 Y131.687 E3.69475
G1 X155.568 Y132.711 E3.73122
G1 X155.174 Y133.664 E3.76552
G1 X154.773 Y134.565 E3.79832
G1 X154.298 Y135.566 E3.83517
G1 X153.859 Y136.433 E3.8675
G1 X153.335 Y137.41 E3.90437
G1 X152.852 Y138.257 E3.9368
G1 X152.321 Y139.135 E3.97093
G1 X151.738 Y140.045 E4.00687
G1 X151.143 Y140.922 E4.04212
G1 X150.579 Y141.713 E4.07443
G1 X149.949 Y142.55 E4.10928
G1 X149.271 Y143.406 E4.1456
G1 X148.655 Y144.142 E4.17752
G1 X147.906 Y144.994 E4.21525
G1 X147.207 Y145.749 E4.24947
G1 X146.503 Y146.471 E4.28301
G1 X145.738 Y147.216 E4.31853
G1 X144.989 Y147.911 E4.35251
G1 X144.167 Y148.633 E4.3889
G1 X143.398 Y149.275 E4.42222
G1 X142.532 Y149.962 E4.45898
G1 X141.718 Y150.574 E4.49286
G1 X140.915 Y151.148 E4.52569
G1 X139.988 Y151.775 E4.56291
G1 X139.133 Y152.32 E4.59663
G1 X138.244 Y152.857 E4.63118
G1 X137.381 Y153.349 E4.66422
G1 X136.441 Y153.854 E4.69971
G1 X135.593 Y154.284 E4.73133
G1 X134.589 Y154.761 E4.7683
G1 X133.678 Y155.166 E4.80146
G1 X132.823 Y155.522 E4.83226
G1 X131.806 Y155.916 E4.86854
G1 X130.924 Y156.233 E4.89971
G1 X129.977 Y156.548 E4.93291
G1 X128.959 Y156.86 E4.96832
G1 X128.074 Y157.106 E4.99887
G1 X127.103 Y157.353 E5.03219
G1 X126.217 Y157.556 E5.06243
G1 X125.272 Y157.75 E5.09451
G1 X124.264 Y157.932 E5.12858
G1 X123.269 Y158.086 E5.16207
G1 X122.285 Y158.213 E5.19507
G1 X121.35 Y158.312 E5.22634
G1 X120.241 Y158.402 E5.26335
G1 X119.425 Y158.448 E5.29053
G1 X118.226 Y158.49 E5.33043
G1 X117.781 Y158.495 E5.34524
G1 X117.025 Y158.492 E5.37038
G1 X115.905 Y158.463 E5.40764
G1 X114.846 Y158.409 E5.44291
G1 X113.935 Y158.34 E5.4733
G1 X112.983 Y158.245 E5.50512
G1 X111.899 Y158.111 E5.54145
G1 X111.077 Y157.988 E5.56909
G1 X110.015 Y157.805 E5.60494
G1 X109.141 Y157.633 E5.63456
G1 X108.085 Y157.398 E5.67054
G1 X107.142 Y157.164 E5.70286
G1 X106.223 Y156.912 E5.73455
G1 X105.128 Y156.583 E5.77258
G1 X104.271 Y156.301 E5.80259
G1 X103.313 Y155.96 E5.83641
G1 X102.289 Y155.568 E5.87288
G1 X101.336 Y155.174 E5.90718
G1 X100.434 Y154.772 E5.94002
G1 X99.432 Y154.297 E5.97691
G1 X98.566 Y153.859 E6.00918
G1 X97.566 Y153.321 E6.04695
G1 X96.748 Y152.854 E6.07828
G1 X95.863 Y152.319 E6.11268
G1 X94.958 Y151.74 E6.14841
G1 X94.082 Y151.147 E6.18359
G1 X93.278 Y150.573 E6.21645
G1 X92.449 Y149.948 E6.25098
G1 X91.588 Y149.266 E6.28751
G1 X90.854 Y148.652 E6.31934
G1 X89.993 Y147.895 E6.35747
G1 X89.24 Y147.197 E6.39162
G1 X88.523 Y146.496 E6.42497
G1 X87.775 Y145.729 E6.46061
G1 X87.079 Y144.977 E6.49469
G1 X86.359 Y144.158 E6.53096
G1 X85.723 Y143.396 E6.56397
G1 X85.038 Y142.532 E6.60064
G1 X84.428 Y141.721 E6.63439
G1 X83.845 Y140.904 E6.66778
G1 X83.225 Y139.987 E6.70459
G1 X82.68 Y139.133 E6.73829
G1 X82.143 Y138.244 E6.77283
G1 X81.654 Y137.386 E6.80568
G1 X81.141 Y136.433 E6.84168
G1 X80.716 Y135.593 E6.87299
G1 X80.239 Y134.589 E6.90996
G1 X79.834 Y133.678 E6.94312
G1 X79.478 Y132.823 E6.97392
G1 X79.084 Y131.806 E7.0102
G1 X78.767 Y130.924 E7.04137
G1 X78.452 Y129.977 E7.07456
G1 X78.14 Y128.959 E7.10998
G1 X77.894 Y128.074 E7.14053
G1 X77.647 Y127.103 E7.17385
G1 X77.444 Y126.217 E7.20408
G1 X77.25 Y125.272 E7.23617
G1 X77.068 Y124.264 E7.27024
G1 X76.914 Y123.269 E7.30373
G1 X76.787 Y122.285 E7.33673
G1 X76.688 Y121.35 E7.368
G1 X76.598 Y120.241 E7.405
G1 X76.552 Y119.425 E7.43219
G1 X76.51 Y118.226 E7.47209
G1 X76.505 Y117.782 E7.48686
G1 X76.508 Y117.025 E7.51204
G1 X76.537 Y115.905 E7.5493
G1 X76.591 Y114.846 E7.58457
G1 X76.66 Y113.935 E7.61496
G1 X76.755 Y112.986 E7.64668
G1 X76.892 Y111.88 E7.68375
G1 X77.01 Y111.087 E7.71041
G1 X77.198 Y109.996 E7.74723
G1 X77.369 Y109.131 E7.77656
G1 X77.602 Y108.083 E7.81227
G1 X77.844 Y107.109 E7.84565
G1 X78.097 Y106.19 E7.87735
G1 X78.417 Y105.128 E7.91424
G1 X78.699 Y104.271 E7.94425
G1 X79.04 Y103.313 E7.97807
G1 X79.432 Y102.289 E8.01454
G1 X79.826 Y101.336 E8.04884
G1 X80.227 Y100.435 E8.08164
G1 X80.702 Y99.434 E8.11849
G1 X81.141 Y98.566 E8.15084
G1 X81.673 Y97.577 E8.18819
G1 X82.148 Y96.743 E8.22012
G1 X82.679 Y95.865 E8.25424
G1 X83.262 Y94.955 E8.29019
G1 X83.857 Y94.078 E8.32544
G1 X84.421 Y93.287 E8.35775
G1 X85.052 Y92.449 E8.39264
G1 X85.734 Y91.588 E8.42917
G1 X86.35 Y90.852 E8.4611
G1 X87.096 Y90.004 E8.49866
G1 X87.802 Y89.241 E8.53323
G1 X88.504 Y88.523 E8.56663
G0 F3000 X88.784 Y88.809
G1 F1200 X89.544 Y88.067 E8.60196
G1 X90.285 Y87.381 E8.63555
G1 X91.091 Y86.673 E8.67123
G1 X91.851 Y86.037 E8.70419
G1 X92.709 Y85.357 E8.7406
G1 X93.516 Y84.751 E8.77417
G1 X94.311 Y84.183 E8.80666
G1 X95.228 Y83.562 E8.8435
G1 X96.075 Y83.021 E8.87693
G1 X96.956 Y82.489 E8.91116
G1 X97.809 Y82.003 E8.94381
G1 X98.742 Y81.502 E8.97903
G1 X99.58 Y81.077 E9.01028
G1 X100.575 Y80.604 E9.04693
G1 X101.477 Y80.203 E9.07976
G1 X102.323 Y79.851 E9.11024
G1 X103.33 Y79.46 E9.14616
G1 X104.203 Y79.146 E9.17702
G1 X105.142 Y78.834 E9.20993
G1 X106.15 Y78.525 E9.245
G1 X107.025 Y78.281 E9.27521
G1 X107.988 Y78.036 E9.30826
G1 X108.864 Y77.835 E9.33815
G1 X109.8 Y77.644 E9.36993
G1 X110.798 Y77.463 E9.40366
G1 X111.784 Y77.311 E9.43684
G1 X112.758 Y77.185 E9.46951
G1 X113.684 Y77.087 E9.50048
G1 X114.783 Y76.998 E9.53715
G1 X115.59 Y76.951 E9.56404
G1 X116.78 Y76.91 E9.60364
G1 X117.219 Y76.905 E9.61824
G1 X117.966 Y76.908 E9.64309
G1 X119.076 Y76.937 E9.68002
G1 X120.126 Y76.991 E9.71499
G1 X121.024 Y77.058 E9.74494
G1 X121.967 Y77.152 E9.77646
G1 X123.047 Y77.286 E9.81266
G1 X123.856 Y77.406 E9.83986
G1 X124.909 Y77.588 E9.8754
G1 X125.77 Y77.757 E9.90458
G1 X126.825 Y77.991 E9.94053
G1 X127.742 Y78.219 E9.97196
G1 X128.673 Y78.474 E10.00406
G1 X129.742 Y78.796 E10.04119
G1 X130.592 Y79.075 E10.07095
G1 X131.543 Y79.413 E10.10452
G1 X132.571 Y79.807 E10.14113
G1 X133.508 Y80.195 E10.17487
G1 X134.379 Y80.583 E10.20658
G1 X135.394 Y81.062 E10.24391
G1 X136.246 Y81.494 E10.27568
G1 X137.232 Y82.024 E10.31291
G1 X138.048 Y82.49 E10.34417
G1 X138.92 Y83.017 E10.37806
G1 X139.822 Y83.594 E10.41367
G1 X140.691 Y84.183 E10.44859
G1 X141.473 Y84.742 E10.48056
G1 X142.303 Y85.366 E10.51509
G1 X143.156 Y86.042 E10.55129
G1 X143.884 Y86.651 E10.58286
G1 X144.725 Y87.391 E10.62012
G1 X145.48 Y88.089 E10.65432
G1 X146.191 Y88.784 E10.68739
G1 X146.933 Y89.544 E10.72272
G1 X147.614 Y90.279 E10.75604
G1 X148.311 Y91.072 E10.79116
G1 X148.963 Y91.851 E10.82494
G1 X149.643 Y92.709 E10.86136
G1 X150.249 Y93.516 E10.89492
G1 X150.817 Y94.311 E10.92742
G1 X151.438 Y95.228 E10.96426
G1 X151.979 Y96.075 E10.99768
G1 X152.511 Y96.956 E11.03191
G1 X152.997 Y97.809 E11.06457
G1 X153.498 Y98.742 E11.09979
G1 X153.921 Y99.575 E11.13086
G1 X154.399 Y100.58 E11.16788
G1 X154.793 Y101.468 E11.20019
G1 X155.14 Y102.301 E11.2302
G1 X155.54 Y103.33 E11.26692
G1 X155.854 Y104.203 E11.29778
G1 X156.166 Y105.142 E11.33069
G1 X156.472 Y106.141 E11.36544
G1 X156.718 Y107.022 E11.39586
G1 X156.96 Y107.973 E11.4285
G1 X157.165 Y108.864 E11.45891
G1 X157.356 Y109.8 E11.49068
G1 X157.536 Y110.796 E11.52435
G1 X157.689 Y111.779 E11.55744
G1 X157.816 Y112.761 E11.59037
G1 X157.913 Y113.682 E11.62117
G1 X158.003 Y114.784 E11.65795
G1 X158.049 Y115.593 E11.6849
G1 X158.085 Y116.563 E11.71718
G1 X158.092 Y116.916 E11.72892
G1 X158.092 Y117.987 E11.76455
G1 X158.064 Y119.083 E11.80101
G1 X158.011 Y120.114 E11.83535
G1 X157.942 Y121.027 E11.8658
G1 X157.848 Y121.969 E11.89729
G1 X157.715 Y123.044 E11.93331
G1 X157.594 Y123.856 E11.96062
G1 X157.412 Y124.909 E11.99616
G1 X157.244 Y125.769 E12.02531
G1 X157.013 Y126.809 E12.06074
G1 X156.78 Y127.746 E12.09285
G1 X156.528 Y128.666 E12.12458
G1 X156.203 Y129.748 E12.16216
G1 X155.923 Y130.597 E12.19189
G1 X155.586 Y131.545 E12.22535
G1 X155.197 Y132.56 E12.26151
G1 X154.808 Y133.502 E12.2954
G1 X154.411 Y134.395 E12.32791
G1 X153.941 Y135.387 E12.36442
G1 X153.507 Y136.245 E12.3964
G1 X152.986 Y137.213 E12.43296
G1 X152.509 Y138.051 E12.46503
G1 X151.983 Y138.92 E12.49882
G1 X151.406 Y139.822 E12.53443
G1 X150.817 Y140.691 E12.56935
G1 X150.258 Y141.473 E12.60132
G1 X149.635 Y142.303 E12.63584
G1 X148.963 Y143.15 E12.6718
G1 X148.354 Y143.879 E12.70339
G1 X147.612 Y144.723 E12.74077
G1 X146.92 Y145.471 E12.77466
G1 X146.222 Y146.185 E12.80787
G1 X145.465 Y146.924 E12.84306
G1 X144.724 Y147.611 E12.87667
G1 X143.909 Y148.327 E12.91275
G1 X143.149 Y148.963 E12.94571
G1 X142.291 Y149.643 E12.98212
G1 X141.484 Y150.249 E13.01569
G1 X140.689 Y150.817 E13.04819
G1 X139.772 Y151.438 E13.08502
G1 X138.925 Y151.979 E13.11845
G1 X138.044 Y152.511 E13.15268
G1 X137.191 Y152.997 E13.18533
G1 X136.258 Y153.498 E13.22055
G1 X135.42 Y153.923 E13.25181
G1 X134.425 Y154.396 E13.28845
G1 X133.523 Y154.797 E13.32128
G1 X132.677 Y155.149 E13.35176
G1 X131.67 Y155.54 E13.38769
G1 X130.797 Y155.854 E13.41854
G1 X129.858 Y156.166 E13.45145
G1 X128.85 Y156.475 E13.48652
G1 X127.975 Y156.719 E13.51673
G1 X127.012 Y156.964 E13.54978
G1 X126.136 Y157.165 E13.57967
G1 X125.2 Y157.356 E13.61145
G1 X124.202 Y157.537 E13.64518
G1 X123.216 Y157.689 E13.67836
G1 X122.242 Y157.815 E13.71103
G1 X121.316 Y157.913 E13.742
G1 X120.217 Y158.002 E13.77867
G1 X119.41 Y158.049 E13.80556
G1 X118.22 Y158.09 E13.84516
G1 X117.781 Y158.095 E13.85976
G1 X117.034 Y158.092 E13.88461
G1 X115.924 Y158.063 E13.92154
G1 X114.875 Y158.01 E13.95648
G1 X113.973 Y157.942 E13.98656
G1 X113.031 Y157.848 E14.01805
G1 X111.956 Y157.715 E14.05408
G1 X111.144 Y157.594 E14.08138
G1 X110.091 Y157.412 E14.11692
G1 X109.227 Y157.243 E14.1462
G1 X108.18 Y157.01 E14.18188
G1 X107.247 Y156.778 E14.21386
G1 X106.337 Y156.529 E14.24524
G1 X105.252 Y156.203 E14.28292
G1 X104.403 Y155.923 E14.31265
G1 X103.455 Y155.586 E14.34611
G1 X102.44 Y155.197 E14.38227
G1 X101.498 Y154.808 E14.41617
G1 X100.604 Y154.41 E14.44871
G1 X99.611 Y153.94 E14.48525
G1 X98.754 Y153.506 E14.5172
G1 X97.763 Y152.973 E14.55463
G1 X96.953 Y152.511 E14.58564
G1 X96.078 Y151.982 E14.61965
G1 X95.182 Y151.408 E14.65504
G1 X94.313 Y150.82 E14.68994
G1 X93.518 Y150.253 E14.72242
G1 X92.697 Y149.634 E14.75662
G1 X91.844 Y148.958 E14.79282
G1 X91.118 Y148.351 E14.82429
G1 X90.264 Y147.6 E14.86212
G1 X89.519 Y146.91 E14.89589
G1 X88.809 Y146.216 E14.92891
G1 X88.068 Y145.457 E14.96419
G1 X87.379 Y144.712 E14.99794
G1 X86.665 Y143.9 E15.03391
G1 X86.035 Y143.146 E15.06659
G1 X85.357 Y142.291 E15.10288
G1 X84.753 Y141.487 E15.13633
G1 X84.176 Y140.679 E15.16935
G1 X83.561 Y139.77 E15.20585
G1 X83.021 Y138.925 E15.23921
G1 X82.489 Y138.044 E15.27344
G1 X82.006 Y137.196 E15.3059
G1 X81.497 Y136.251 E15.3416
G1 X81.077 Y135.42 E15.37257
G1 X80.604 Y134.425 E15.40921
G1 X80.203 Y133.523 E15.44204
G1 X79.851 Y132.677 E15.47252
G1 X79.46 Y131.67 E15.50845
G1 X79.146 Y130.797 E15.5393
G1 X78.834 Y129.858 E15.57221
G1 X78.525 Y128.85 E15.60728
G1 X78.281 Y127.975 E15.63749
G1 X78.036 Y127.012 E15.67054
G1 X77.835 Y126.136 E15.70043
G1 X77.644 Y125.2 E15.73221
G1 X77.463 Y124.202 E15.76594
G1 X77.311 Y123.216 E15.79912
G1 X77.185 Y122.242 E15.83179
G1 X77.087 Y121.316 E15.86276
G1 X76.998 Y120.217 E15.89943
G1 X76.951 Y119.41 E15.92632
G1 X76.91 Y118.221 E15.96589
G1 X76.905 Y117.782 E15.98049
G1 X76.908 Y117.034 E16.00537
G1 X76.937 Y115.924 E16.0423
G1 X76.99 Y114.875 E16.07724
G1 X77.058 Y113.973 E16.10732
G1 X77.152 Y113.034 E16.13871
G1 X77.287 Y111.938 E16.17544
G1 X77.404 Y111.154 E16.2018
G1 X77.59 Y110.072 E16.23832
G1 X77.759 Y109.217 E16.26731
G1 X77.991 Y108.178 E16.30271
G1 X78.23 Y107.214 E16.33575
G1 X78.48 Y106.304 E16.36714
G1 X78.797 Y105.252 E16.40368
G1 X79.077 Y104.403 E16.43341
G1 X79.414 Y103.455 E16.46688
G1 X79.803 Y102.44 E16.50303
G1 X80.192 Y101.498 E16.53693
G1 X80.589 Y100.605 E16.56943
G1 X81.059 Y99.613 E16.60594
G1 X81.494 Y98.754 E16.63797
G1 X82.021 Y97.773 E16.675
G1 X82.491 Y96.949 E16.70656
G1 X83.017 Y96.08 E16.74034
G1 X83.594 Y95.178 E16.77596
G1 X84.183 Y94.309 E16.81087
G1 X84.742 Y93.527 E16.84284
G1 X85.366 Y92.697 E16.87738
G1 X86.042 Y91.844 E16.91358
G1 X86.651 Y91.116 E16.94515
G1 X87.391 Y90.275 E16.98241
G1 X88.089 Y89.52 E17.01661
G1 X88.784 Y88.809 E17.04968
